!!!!SEGMENT: pl-wn--mus-iii-601--002-001_janiewicz-feliks--iie-trio-allegro-moderato.krn
!!!cenid: 17xx:2390
!!!COM: Janiewicz, Feliks
!!!COM-rismid: pe30011012
!!!CDT:
!!!CNT:
!!!OPR: IIe Trio
!!!OTL: Allegro moderato
!!!OMV: 001
!!!PDT:
!!!AGN:
!!!SMS-siglum: PL-Wn
!!!SMS-shelfmark: Mus.III.601
!!!SMS-shelfwork: 002-001 M
!!!SMS-variant:
!!!SMS-altvar:
!!!NIFC-rismid: 990069598
!!!URL-scan: https://polona.pl/item/six-trios-pour-deux-violons-basse,MTAxMDA3MzY2/0/#item
!!!ONB-nifc: UWAGA: źródło zawiera 6 Trio na 2 skrzypiec i wiolonczelę. Violino Primo (od skanu 3), Violino Secondo (od skanu 37), Basso (od skanu 61). Basso to partia wiolonczeli. Części Ie Trio: 1. Allegro moderato, 2. Andante, 3. Pollacca/Rondeau
!!!AIN: 2 violn
!!!key: A
**kern	**dynam	**kern	**dynam	**kern	**dynam
*part3	*part3	*part2	*part2	*part1	*part1
*staff3	*	*staff2	*	*staff1	*
*I"BASSO	*	*I"VIOLINO SECONDO	*	*I"VIOLINO PRIMO	*
*I'b	*	*I'vl II	*	*I'vl I	*
*ICstr	*	*ICstr	*	*ICstr	*
*I[cbass]	*	*Ivioln	*	*Ivioln	*
*clefF4	*	*clefG2	*	*clefG2	*
*k[f#c#g#]	*	*k[f#c#g#]	*	*k[f#c#g#]	*
*A:	*	*A:	*	*A:	*
*M4/4	*	*M4/4	*	*M4/4	*
*met(c)	*	*met(c)	*	*met(c)	*
=1	=1	=1	=1	=1	=1
*	*	*	*	*^	*
!LO:TX:a:B:t=All(egr)o Moderato	!LO:DY:b:t=F	!LO:TX:a:B:t=All(egr)o Moderato	!	!LO:TX:a:B:t=Allegro Mod(era)to	!	!LO:DY:b:t=F
[1AA	f	8r	.	[2ee/	2cc#\	f
!	!	!	!LO:DY:b:t=F	!	!	!
.	.	8c#'/L 8e	f	.	.	.
.	.	8c#'/ 8e	.	.	.	.
.	.	8c#'/J 8e	.	.	.	.
.	.	4c#/ 4e	.	8ee/L]	8cc#\L	.
.	.	.	.	(8cc#/	8a\	.
.	.	4r	.	8dd/	8b\	.
.	.	.	.	8ff#/J)	8dd\J	.
=2	=2	=2	=2	=2	=2	=2
2AA/_	.	8r	.	(>8ff#/L	8dd\L	.
.	.	8c#'/L 8e	.	8ee/J	8cc#\J	.
.	.	8c#'/ 8e	.	2ee/)	2cc#\	.
.	.	8c#'/J 8e	.	.	.	.
8AA/L]	.	4c#/ 4e	.	.	.	.
8A\	.	.	.	.	.	.
8G#\	.	4r	.	4r	4rcyy	.
8A\J	.	.	.	.	.	.
*	*	*	*	*v	*v	*
=3	=3	=3	=3	=3	=3
[1AA	.	8r	.	2cc#\ [2ee	.
.	.	8c#/L 8e	.	.	.
.	.	8c#/ 8e	.	.	.
.	.	8c#/J 8e	.	.	.
.	.	4c#/ 4e	.	8cc#\L 8ee]	.
.	.	.	.	(8a\ 8cc#	.
.	.	4r	.	8b\ 8dd	.
.	.	.	.	8dd\J) 8ff#	.
=4	=4	=4	=4	=4	=4
2AA/_	.	8r	.	(8dd\L 8ff#	.
.	.	8c#/L 8e	.	8cc#\J) 8ee	.
.	.	8c#/ 8e	.	2cc#\ 2ee	.
.	.	8c#/J 8e	.	.	.
8AA/L]	.	4c#/ 4e	.	.	.
(8A\	.	.	.	.	.
8G#\	.	4r	.	4r	.
8A\J)	.	.	.	.	.
=5	=5	=5	=5	=5	=5
8r	.	[2G#/	p	(2b\ 2dd	p
(8E\L	p	.	.	.	.
8D#X\	.	.	.	.	.
8E\J)	.	.	.	.	.
[2EE/	.	8G#/L]	.	8b\L 8dd	.
.	.	(8d/	.	8g#\ 8b	.
.	.	8c#/	.	8a\ 8cc#	.
.	.	8A/J)	.	8cc#\J) 8ee	.
!	!	!LO:LB:g=original	!	!	!
=6	=6	=6	=6	=6	=6
!LO:TX:t=P:problem: mixed beam	!	!	!	!	!
8EE/L]	.	[2G#/	.	2b\ [2dd	.
(8E\	.	.	.	.	.
8D#X\	.	.	.	.	.
8E\J)	.	.	.	.	.
[2EE/	.	8G#/L]	.	8b\L 8dd]	.
!	!	!	!	!	!LO:HP:b:t=cres
.	.	(8d/	.	(8g#\ 8b	<
.	.	8c#/	.	8a\ 8cc#	.
.	.	8A/J)	.	8cc#\J) 8ee	.
=7	=7	=7	=7	=7	=7
!LO:TX:t=P:problem: mixed beam	!	!	!	!	!
8EE/L]	.	[2G#/	.	2b\ [2dd	.
(8E\	>	.	.	.	.
8Fn\	.	.	.	.	.
8E\J)	]	.	.	.	.
2EE/	.	8G#/L]	.	8b\L 8dd]	.
.	.	(8d/	.	(8g#\ 8b	.
.	.	8c#/	.	12a\ 12cc#	.
.	.	.	.	12b\ 12dd	.
.	.	8A/J)	.	.	.
.	.	.	.	12cc#\J) 12ee	.
!	!	!	!	!LO:LB:g=original	!
=8	=8	=8	=8	=8	=8
*	*	*	*	*^	*
1E;	>]	4G#;/	.	4.b;\ 4.dd	2rcyy	.
.	.	4r	.	.	.	.
.	.	.	.	8a\ 8cc#	.	.
.	.	.	.	8qqcc#/	8qqa\	.
.	.	2B;/ 2d	> ]	2b;/	2g#\	.
*	*	*	*	*v	*v	*
=9	=9	=9	=9	=9	=9
4AA/	p	8r	.	2cc#\ [2ee	p
.	.	(8a/L	p	.	.
4r	.	8g#/	.	.	.
.	.	8a/J)	.	.	.
2r	.	[2A/	.	8cc#\L 8ee]	.
.	.	.	.	(8a\ 8cc#	.
.	.	.	.	8b\ 8dd	.
.	.	.	.	8dd\J) 8ff#	.
!LO:LB:g=original	!	!	!	!	!
=10	=10	=10	=10	=10	=10
8r	.	4A/]	.	8dd\L 8ff#	.
8AA/L	.	.	.	8cc#\J 8ee	.
8C#/	.	4r	.	4cc#\ 4ee	.
8E/J	.	.	.	.	.
!	!	!	!	!LO:TX:b:i:t=rinf	!
4A\	.	2r	.	16aa\LL 16ccc#	.
.	.	.	.	16gg#\ 16bb	.
.	.	.	.	16ff#\ 16aa	.
.	.	.	.	16ee\JJ 16gg#	.
4r	.	.	.	16gg#\LL 16bb	.
.	.	.	.	16ff#\ 16aa	.
.	.	.	.	16ee\ 16gg#	.
.	.	.	.	16dd\JJ 16ff#	.
=11	=11	=11	=11	=11	=11
!	!	!	!	!LO:TX:b:i:t=dol	!
.	.	.	.	8qqdd\ 8qqff#/	.
*	*	*	*	*^	*
4AA/	.	8r	.	4cc#\ 4ee	1rcyy	.
.	.	(8a/L	.	.	.	.
4r	.	8g#/	.	4.cc#\ 4.ee	.	.
.	.	8a/J)	.	.	.	.
2r	.	[2A/	.	.	.	.
.	.	.	.	8a\L 8cc#	.	.
.	.	.	.	8b\ 8dd	.	.
.	.	.	.	8dd\J 8ff#	.	.
*	*	*	*	*v	*v	*
=12	=12	=12	=12	=12	=12
8r	.	4A/]	.	8dd\L 8ff#	.
8AA/L	.	.	.	8cc#\J 8ee	.
8C#/	.	4r	.	2cc#\ 2ee	.
8E/J	.	.	.	.	.
8A\L	.	2r	.	.	.
!	!LO:HP:b:t=cres	!	!	!	!
8e\	<	.	.	.	.
8c#\	.	.	.	4r	.
8A\J	.	.	.	.	.
=13	=13	=13	=13	=13	=13
!	!LO:DY:b:t=F	!	!	!LO:TX:t=P:problem: tryl zapisany 2x - problem wyświetlania	!LO:DY:b:t=F
4G#\	f	8r	.	2bT<\ 2ddT	f
!	!	!LO:TX:b:i:t=rinf	!	!	!
.	.	(16e/LL	.	.	.
.	.	16d#X/JJ	.	.	.
4r	.	8e/L)	.	.	.
.	.	8e`/J	.	.	.
2E\	.	8r	.	2bb\ 2ddd	.
.	.	(16b/LL	.	.	.
.	.	16a/JJ	.	.	.
.	.	8g#/L)	.	.	.
.	.	8g#`/J	.	.	.
!	!	!LO:LB:g=original	!	!	!
=14	=14	=14	=14	=14	=14
*	*	*	*	*^	*
!	!	!	!	!LO:TX:t=P:problem: tryl zapisany 2x - problem wyświetlania	!	!
8r	.	4a/	.	2aaT\ 2ccc#	2rcyy	.
(16A\LL	.	.	.	.	.	.
16G#\JJ	.	.	.	.	.	.
8A\L)	.	4r	.	.	.	.
8A\J	.	.	.	.	.	.
8r	.	2r	.	2cc#/	[2a\	.
16F#\LL	.	.	.	.	.	.
16E#X\JJ	.	.	.	.	.	.
8F#\L	.	.	.	.	.	.
8En\J	.	.	.	.	.	.
=15	=15	=15	=15	=15	=15	=15
4D\	.	4.f#/	p	16b/LL	4a\]	.
!	!	!	!	!LO:TX:b:i:t=dol	!	!
.	.	.	.	16cc#/	.	.
.	.	.	.	16dd/	.	.
.	.	.	.	16cc#/JJ	.	.
4r	.	.	.	16b/LL	4rc	.
.	.	.	.	8qqgg#/	.	.
.	.	.	.	16ff#/	.	.
.	.	.	.	8qqee/	.	.
.	.	8f#/	.	16dd/	.	.
.	.	.	.	8qqcc#/	.	.
.	.	.	.	16b/JJ	.	.
4E\	p	8e/L	.	4a/	4c#\	.
.	.	8c#/	.	.	.	.
4E\	.	8B/	.	4g#/	4dT\	.
.	.	8B/J	.	.	.	.
*	*	*	*	*v	*v	*
!	!	!	!	!LO:LB:g=original	!
=16	=16	=16	=16	=16	=16
4AA/	.	4c#`/	.	8c#/L 8a	.
.	.	.	.	16e/L 16cc#	.
.	.	.	.	16c#/JJ 16a	.
4r	.	4r	.	16e/LL 16cc#	p
.	.	.	.	16c#/ 16a	.
.	.	.	.	16e/ 16cc#	.
.	.	.	.	16c#/JJ 16a	.
4A\	.	4c#`/ 4e	.	16c#\LL 16a	.
.	.	.	.	16a\ 16cc#	.
.	.	.	.	16cc#\ 16ee	.
.	.	.	.	16a\JJ 16cc#	.
4reeeee	.	4r	.	16cc#\LL 16ee	.
.	.	.	.	16a\ 16cc#	.
.	.	.	.	16cc#\ 16ee	.
.	.	.	.	16a\JJ 16cc#	.
=17	=17	=17	=17	=17	=17
4AA/	.	1c# 1e	.	(16a\LL 16cc#	.
.	.	.	.	16cc#\) 16ee	.
.	.	.	.	(16ee\ 16aa	.
.	.	.	.	16ee\JJ) 16ccc#	.
!	!	!	!	!	!LO:HP:b:t=cres
4r	.	.	.	(16ee\LL 16aa	<
.	.	.	.	16cc#\) 16ee	.
.	.	.	.	(16a\ 16cc#	.
.	.	.	.	16cc#\JJ) 16ee	.
4A\	.	.	.	16a\LL 16cc#	.
.	.	.	.	16cc#\ 16ee	.
.	.	.	.	16ee\ 16aa	.
.	.	.	.	16ee\JJ 16ccc#	.
4r	.	.	.	16ee\LL 16aa	.
.	.	.	.	16cc#\ 16ee	.
.	.	.	.	16a\ 16cc#	.
.	.	.	.	16cc#\JJ 16ee	.
!LO:LB:g=original	!	!	!	!	!
=18	=18	=18	=18	=18	=18
!LO:TX:b:i:t=rinf	!	!LO:TX:b:i:t=rinf	!	!	!
4EE/	.	4B/ 4e	.	8b\L 8dd	.
.	.	.	.	16cc#\L 16ee	.
.	.	.	.	16b\JJ 16dd	.
4r	.	4r	.	16cc#\LL 16ee	.
.	.	.	.	16b\ 16dd	.
.	.	.	.	16cc#\ 16ee	.
.	.	.	.	16b\JJ 16dd	.
4E\	.	4B/ 4g#	.	16b\LL 16dd	f
.	.	.	.	16ee\ 16gg#	.
.	.	.	.	16gg#\ 16bb	.
.	.	.	.	16ee\JJ 16gg#	.
4r	.	4r	.	16gg#\LL 16bb	.
.	.	.	.	16ee\ 16gg#	.
.	.	.	.	16gg#\ 16bb	.
.	.	.	.	16ee\JJ 16gg#	.
=19	=19	=19	=19	=19	=19
4EE/	.	1B 1g#	>]	16ee`\LL 16gg#	.
.	.	.	.	(16ff#\ 16aa	>
.	.	.	.	16gg#\) 16bb	.
.	.	.	.	(16aa\JJ 16ccc#	.
4r	.	.	.	16bb\LL) 16ddd	.
.	.	.	.	(16aa\ 16ccc#	.
.	.	.	.	16gg#\) 16bb	.
.	.	.	.	(16ff#\JJ 16aa	.
4E\	.	.	.	16ee\LL) 16gg#	.
.	.	.	.	(16ff#\ 16aa	.
.	.	.	.	16gg#\) 16bb	.
.	.	.	.	(16ff#\JJ 16aa	.
4r	.	.	.	16ee\LL) 16gg#	.
.	.	.	.	(16dd\ 16ff#	.
.	.	.	.	16cc#\) 16ee	.
.	.	.	.	(16b\JJ 16dd	]
!	!	!	!	!LO:LB:g=original	!
=20	=20	=20	=20	=20	=20
!	!	!	!	!LO:TX:b:i:t=dol	!
4AA/	p	8r	.	2a\) [2cc#	.
.	.	8e'/L	p	.	.
4r	.	8e'/	.	.	.
.	.	8e'/J	.	.	.
4A\	.	4e/	.	8a\L 8cc#]	.
.	.	.	.	(8cc#\ 8ee	.
4r	.	4r	.	8b\ 8dd#X	.
.	.	.	.	8a\J) 8cc#	.
=21	=21	=21	=21	=21	=21
4EE/	.	8r	.	8a\L 8cc#	.
.	.	8e/L	.	8g#\J 8b	.
4r	.	8e/	.	[2.g#/ 2.b	.
.	.	8e/J	.	.	.
8E\L	.	4e/	.	.	.
8B\	.	.	.	.	.
8G#\	.	4r	.	.	.
8E\J	.	.	.	.	.
=22	=22	=22	=22	=22	=22
4D#X\	.	8r	.	8g#/L] 8b	.
.	.	8B/L	.	8f#/ 8a	.
4r	.	8B/	.	8f#/ 8a	.
.	.	8B/J	.	8f#/J 8a	.
4BB/	.	2d#X/	.	8f#/L 8a	.
!	!	!	!	!	!LO:HP:b:t=cres
.	.	.	.	16g#/L 16b	<
.	.	.	.	16a/JJ 16cc#	.
4r	.	.	.	16a/LL 16cc#	.
.	.	.	.	16g#/ 16b	.
.	.	.	.	16g#/ 16b	.
.	.	.	.	16f#/JJ 16a	.
=23	=23	=23	=23	=23	=23
4E\	.	8r	.	8f#/L 8a	.
.	.	(16e/LL	.	8e/J 8g#	.
.	.	16g#/JJ	.	.	.
4r	.	8b/L)	.	2.e/ 2.g#	.
.	.	8b`/J	.	.	.
8E\L	.	2b\	.	.	.
(16e\L	.	.	.	.	.
16d#X\JJ)	.	.	.	.	.
8c#'\L	.	.	.	.	.
8B'\J	.	.	.	.	.
!	!	!LO:LB:g=original	!	!	!
=24	=24	=24	=24	=24	=24
*	*	*	*	*^	*
8A'\L	p	8r	.	8f#/L	[1e	p
8B'\	.	8ee\L	.	8g#/	.	.
8c#'\	.	8ee\	.	8a/	.	.
8B'\J	.	8ee\J	.	8g#/J	.	.
8A'\L	.	[2ee\	.	8f#/L	.	.
8c#'\	.	.	.	8a/	.	.
(8c#\	.	.	.	8a/	.	.
8B\J)	.	.	.	8g#/J	.	.
=25	=25	=25	=25	=25	=25	=25
!	!	!LO:TX:t=P:problem:mixed beam	!	!	!	!
8A\L	.	8ee\L]	.	8f#/L	1e_	.
8B\	.	8e/	.	8g#/	.	.
8c#\	.	8ee\	.	8a/	.	.
!	!LO:HP:b:t=cres	!	!	!	!	!
8B\J	<	8ee\J	.	8g#/J	.	.
8A\L	.	[2ee\	.	8f#/L	.	.
!	!	!	!	!	!	!LO:HP:b:t=cres
8c#\	.	.	.	8a/	.	<
(8c#\	.	.	.	8a/	.	.
8B\J)	.	.	.	8g#/J	.	.
!LO:LB:g=original	!	!	!	!	!	!
=26	=26	=26	=26	=26	=26	=26
!LO:TX:b:i:t=rinf	!	!LO:TX:t=P:problem:mixed beam	!LO:HP:b:t=cres	!	!	!
8A#X\L	.	8ee\L]	<	8f#/L	1e]	.
!	!	!	!	!LO:TX:b:i:t=rinf	!	!
8A#\	.	8e/	.	8gn/	.	.
8A#\	.	8ee\	.	8g/	.	.
8A#\J	.	8ee\J	.	8g/J	.	.
*tremolo	*	*	*	*	*	*
8A#\L	.	4.ee\	.	8g/L	.	.
8A#\	.	.	.	16f#/L	.	.
.	.	.	.	16g/JJ	.	.
.	.	.	.	8qqa/	.	.
8A#\	.	.	.	8g/L	.	.
8A#\J	.	8cc#\	.	16f#/L	.	.
.	.	.	.	16e/JJ	.	.
*	*	*	*	*v	*v	*
!	!	!	!	!LO:LB:g=original	!
=27	=27	=27	=27	=27	=27
!	!	!	!LO:DY:b:t=F	!	!LO:DY:b:t=F
8B\L	.	8b/L	f	16d#X/LL	f
.	.	.	.	16B/	.
8B\	.	8f#/	.	16c#/	.
.	.	.	.	16d#/JJ	.
8B\	.	8d#X/	.	16e/LL	.
.	.	.	.	16f#/	.
8B\J	.	8f#/J	.	16g#/	.
.	.	.	.	16a#X/JJ	.
8B\L	.	8d#/L	.	16b\LL	.
.	.	.	.	16cc#\	.
8B\	.	8f#/	.	16dd#X\	.
.	.	.	.	16ee\JJ	.
8B\	.	8d#/	.	16ff#\LL	.
.	.	.	.	16gg#\	.
8B\J	.	8f#/J	.	16aa#X\	.
.	.	.	.	16bb\JJ	.
=28	=28	=28	=28	=28	=28
8B\L	.	8e/L	.	16aa#X\LL	.
.	.	.	.	16eee\	.
8B\	.	8gn/	.	16ccc#\	.
.	.	.	.	16aa#\JJ	.
8B\	.	8e/	.	16ggn\LL	.
.	.	.	.	16ee\	.
8B\	.	8g/J	.	16cc#\	.
.	.	.	.	16a#X\JJ	.
8B\	.	8e/L	.	16gn/LL	.
.	.	.	.	16e/	.
8B\	.	8g/	.	16c#/	.
.	.	.	.	16B/JJ	.
8B\	.	8e/	.	16A#X/LL	.
.	.	.	.	16e/	.
8B\J	.	8g/J	.	16c#/	.
.	.	.	.	16A#/JJ	.
=29	=29	=29	=29	=29	=29
8BB/L	p	8d#X/L	p	8B/L	.
8BB/	.	8f#/	.	16c#/L	.
.	.	.	.	16d#X/JJ	.
8BB/	.	8d#/	.	16e/LL	.
.	.	.	.	16f#/	.
8BB/	.	8f#/J	.	16g#X/	.
.	.	.	.	16a#X/JJ	.
8BB/	.	8d#/L	.	16b\LL	.
.	.	.	.	16cc#\	.
8BB/	.	8f#/	.	16dd#yX\	.
.	.	.	.	16ee\JJ	.
8BB/	.	8d#/	.	16ff#\LL	.
.	.	.	.	16gg#\	.
8BB/J	.	8f#/J	.	16aa#yX\	.
.	.	.	.	16bb\JJ	.
!	!	!LO:LB:g=original	!	!LO:LB:g=original	!
=30	=30	=30	=30	=30	=30
8BB/L	.	8e/L	.	16aa#X\LL	.
.	.	.	.	16eee\	.
8BB/	.	8gn/	.	16ccc#\	.
.	.	.	.	16aa#\JJ	.
8BB/	.	8e/	.	16ggn\LL	.
.	.	.	.	16ee\	.
8BB/	.	8g/J	.	16cc#\	.
.	.	.	.	16a#yX\JJ	.
8BB/	.	8e/L	.	16gny/LL	.
.	.	.	.	16e/	.
8BB/	.	8g/	.	16c#/	.
.	.	.	.	16B/JJ	.
8BB/	.	8e/	.	16A#yX/LL	.
.	.	.	.	16e/	.
8BB/J	.	8g/J	.	16c#/	.
.	.	.	.	16A#/JJ	.
*Xtremolo	*	*	*	*	*
=31	=31	=31	=31	=31	=31
4BB/	.	4d#X/	.	16B/LL	.
.	.	.	.	16f#/	.
.	.	.	.	16d#X/	.
.	.	.	.	16B/JJ	.
8r	.	8r	.	16e/LL	.
.	.	.	.	16gn/	.
!	!LO:HP:b:t=cres	!LO:TX:b:i:t=rinf	!	!	!
8AA#X/	<	8c#/	.	16f#/	.
.	.	.	.	16e/JJ	.
4BB/	.	4d#/	.	16d#/LL	.
.	.	.	.	16f#/	.
.	.	.	.	16d#/	.
.	.	.	.	16B/JJ	.
8r	.	8r	.	16e/LL	.
.	.	.	.	16g/	.
8AA#/	.	8c#/	.	16f#/	.
.	.	.	.	16e/JJ	.
=32	=32	=32	=32	=32	=32
!	!LO:DY:b:t=F	!	!LO:DY:b:t=F	!	!
8BB/	f	8B`/	f	8d#X/L	.
8r	.	8r	.	24b`/L	.
.	.	.	.	24f#`/	.
.	.	.	.	24d#`/JJ	.
8BB/	.	8d#X`/	.	8B/L	.
*	*	*	*	*Xtuplet	*
8r	.	8r	.	24dd`/L	.
.	.	.	.	24b`/	.
.	.	.	.	24f#`/JJ	.
8BB/	.	8f#`/	.	8d#\L	.
8r	.	8r	.	24ff#`\L	.
.	.	.	.	24dd#yX`\	.
.	.	.	.	24b`\JJ	.
8BB/	.	8d#`/	.	8f#\L	.
8r	.	8r	.	24bb`\L	.
.	.	.	.	24ff#`\	.
.	.	.	.	24dd#`\JJ	.
=33	=33	=33	=33	=33	=33
8BB/	.	8f#`/	.	8b\L	.
8r	.	8r	.	24ddd#X`\L	.
.	.	.	.	24bb`\	.
.	.	.	.	24ff#`\JJ	.
8B\	.	8f#`/	.	8dd#yX\L	.
8r	.	8r	.	24fff#`\L	.
.	.	.	.	24ddd#`\	.
.	.	.	.	24bb`\JJ	.
8BB/	.	8d#X`/ 8f#	.	8ff#`\L	.
8r	.	8r	.	8bbb`\J	.
4r;	.	4r;	.	4r;	.
!	!	!	!	!LO:LB:g=original	!
=34	=34	=34	=34	=34	=34
!	!	!	!	!LO:TX:b:i:t=dol	!
[1E	p	(2B/	p	(16g#/LL	.
.	.	.	.	16a/	.
.	.	.	.	16g#/	.
.	.	.	.	16f#/JJ	.
.	.	.	.	16g#/LL	.
.	.	.	.	16e/	.
.	.	.	.	16a/	.
.	.	.	.	16f#/JJ)	.
.	.	4G#/	.	(4b/	.
.	.	4B/)	.	16a/LL	.
.	.	.	.	16g#/	.
.	.	.	.	16f#/	.
.	.	.	.	16e/JJ)	.
=35	=35	=35	=35	=35	=35
4.E\]	.	4.A/	.	(16cc#\LL	.
.	.	.	.	16dd#X\	.
.	.	.	.	16cc#\	.
.	.	.	.	16b#X\JJ	.
.	.	.	.	16cc#\LL	.
.	.	.	.	16a\	.
8F#\	.	8a/	.	16dd#\	.
.	.	.	.	16bn\JJ	.
8G#\L	.	4g#/	.	4ee\)	.
8B\	.	.	.	.	.
8G#\	.	4r	.	4r	.
8E\J	.	.	.	.	.
!LO:LB:g=original	!	!LO:LB:g=original	!	!	!
=36	=36	=36	=36	=36	=36
[1BB	.	4r	.	(16ff#\LL	.
.	.	.	.	16gg#\	.
.	.	.	.	16ff#\	.
.	.	.	.	16ee\JJ	.
.	.	4B/ 4f#	.	16dd#X\LL	.
.	.	.	.	16cc#\	.
.	.	.	.	16dd#\	.
.	.	.	.	16b\JJ)	.
.	.	4r	.	(16gg#\LL	.
.	.	.	.	16aa\	.
.	.	.	.	16gg#\	.
.	.	.	.	16ff#\JJ	.
.	.	4B/ 4e	.	16gg#\LL	.
.	.	.	.	16ee\	.
.	.	.	.	16bb\	.
.	.	.	.	16gg#\JJ)	.
=37	=37	=37	=37	=37	=37
4BB/]	.	8d#X/L	.	16ff#\LL	.
.	.	.	.	(16aa#X\	.
.	.	8e/	.	16bb\)	.
.	.	.	.	(16gg#\JJ	.
4BB/	.	8d#/	.	16ff#\LL)	.
.	.	.	.	(16aa#\	.
.	.	8e/J	.	(16bb\)	.
.	.	.	.	(16gg#\JJ	.
4BB/	.	4d#/	.	16ff#\LL)	.
.	.	.	.	(16ee\	.
.	.	.	.	16dd#X\)	.
.	.	.	.	(16cc#\JJ	.
4r	.	4r	.	16b\LL)	.
.	.	.	.	(16a\	.
.	.	.	.	16g#\))	.
.	.	.	.	16f#\JJ	.
!	!	!	!	!LO:LB:g=original	!
=38	=38	=38	=38	=38	=38
[2E\	.	(2B/	.	(16g#/LL	.
.	.	.	.	16a/	.
.	.	.	.	16g#/	.
.	.	.	.	16f#/JJ	.
.	.	.	.	16g#/LL	.
.	.	.	.	16e/	.
.	.	.	.	16a/	.
.	.	.	.	16f#/JJ)	.
4E\]	.	4G#/	.	(4b/	.
4r	.	4B/)	.	16a/LL	.
.	.	.	.	16g#/	.
.	.	.	.	16f#/	.
.	.	.	.	16e/JJ)	.
=39	=39	=39	=39	=39	=39
!	!	!	!	!LO:TX:b:i:t=rinf	!
.	.	.	.	8qqe#X/	.
4E#X;\	.	4G#;/	.	(16ddn\LL	.
.	.	.	.	16cc#\	.
!	!	!	!	!LO:TX:a:i:t=piu lento	!
.	.	.	.	16b\	.
.	.	.	.	16a\JJ	.
8r	.	8r	.	16g#\LL	.
.	.	.	.	16f#\	.
8E#\	.	(8B/	.	16e#X\	.
.	.	.	.	16dd\JJ)	.
.	.	.	.	8qqdd/	.
4F#;\	.	4A;/)	.	4cc#\	.
4r	.	4r	.	4r;	.
=40	=40	=40	=40	=40	=40
4F#\	.	4A/	.	(16cc#\LL	.
.	.	.	.	16dd\	.
.	.	.	.	16cc#\	.
.	.	.	.	16b#X\JJ	.
4r	.	4r	.	8cc#\L)	.
.	.	.	.	(16aa\L	.
.	.	.	.	16ff#\JJ)	.
4F#\	.	4a/	.	(16cc#\LL	.
.	.	.	.	16dd\	.
.	.	.	.	16cc#\	.
.	.	.	.	16b#\JJ	.
4r	.	4r	.	8cc#\L)	.
.	.	.	.	(16aa\L	.
.	.	.	.	16ff#\JJ)	.
=41	=41	=41	=41	=41	=41
4.F#\	.	4.a/	.	(16cc#\LL	.
.	.	.	.	16ff#\	.
.	.	.	.	16aa\	.
.	.	.	.	16ccc#\JJ	.
.	.	.	.	16bb\LL	.
.	.	.	.	16aa\	.
8A\	.	8cc#\	.	16gg#\	.
.	.	.	.	16ff#\JJ)	.
4B;\	.	4g#;/ 4b	.	4ee;\	.
.	.	.	.	16qqdd#/LL	.
.	.	.	.	16qqff#/	.
.	.	.	.	16qqee/JJ	.
8B;\	.	8f#;/ 8a	.	8dd#X;\	.
8r	.	8r	.	8r	.
!	!	!	!	!LO:LB:g=original	!
=42	=42	=42	=42	=42	=42
*	*	*	*	*8va	*
*	*	*	*	*^	*
!LO:TX:a:t=1	!	!	!	!	!	!
1r	.	8gg#'\L	p	[2bb/	2rg	p
.	.	8gg#'\	.	.	.	.
.	.	8ff#'\	.	.	.	.
.	.	8ff#'\J	.	.	.	.
.	.	8ee#X\L	.	2bb/_	8gg#\L	.
.	.	8ee#\	.	.	8gg#\	.
.	.	8ddn\	.	.	8ff#\	.
.	.	8dd\J	.	.	8ff#\J	.
=43	=43	=43	=43	=43	=43	=43
4r	.	4cc#\	.	4bb/]	4ee#X\	.
!	!	!	!	!	!	!LO:DY:b:t=rF
(4c#\	.	(4e#X/	.	(16bb\LL	4rcyy	f
.	.	.	.	16ggg#\)	.	.
.	.	.	.	(16ggg#\	.	.
.	.	.	.	16fff#\JJ)	.	.
4d#X\	.	4f#/	.	(16fff#\LL	2rcyy	.
.	.	.	.	16eee#X\)	.	.
.	.	.	.	(16eee#\	.	.
.	.	.	.	16dddn\JJ)	.	.
4e#X\)	.	8g#/L)	.	(16ddd\LL	.	.
.	.	.	.	16ccc#\)	.	.
.	.	[8gg#\J	.	(16ccc#\	.	.
.	.	.	.	16bb\JJ)	.	.
!	!	!LO:LB:g=original	!	!	!	!
=44	=44	=44	=44	=44	=44	=44
4f#\	.	8gg#\L]	.	[2aa/	2rg	.
.	.	8ff#'\	.	.	.	.
4r	.	8ee'\	.	.	.	.
.	.	8ee'\J	.	.	.	.
2r	.	8dd#X'\L	.	2aa/_	8ff#\L	.
.	.	8dd#'\	.	.	8ff#\	.
.	.	8ccn'\	.	.	8ee\	.
.	.	8cc'\J	.	.	8ee\J	.
=45	=45	=45	=45	=45	=45	=45
4r	.	4b\	.	4aa/]	4dd#X\	.
(4B\	.	(4d#X/	.	(16aa\LL	4rcyy	.
.	.	.	.	16fff#\)	.	.
.	.	.	.	(16fff#\	.	.
.	.	.	.	16eee\JJ)	.	.
4c#\	.	4e/	.	(16eee\LL	2rcyy	.
.	.	.	.	16ddd#X\)	.	.
.	.	.	.	(16ddd#\	.	.
.	.	.	.	16ccc#\JJ)	.	.
4d#X\	.	8f#/L)	.	(16ccc#\LL	.	.
.	.	.	.	16bb\)	.	.
.	.	[8ff#\J	.	(16bb\	.	.
.	.	.	.	16aa\JJ)	.	.
=46	=46	=46	=46	=46	=46	=46
4e\)	.	8ff#\L]	.	2gg#/	2rg	.
.	.	8ee'\	.	.	.	.
4r	.	8dd#X'\	.	.	.	.
.	.	8dd#'\J	.	.	.	.
!	!	!	!	!LO:TX:a:i:t=lento	!	!
2r	.	8cc#X'\L	.	2gg#/	8ee\L	.
.	.	8cc#'\	.	.	8ee\	.
.	.	8b'\	.	.	8dd#X\	.
.	.	8b'\J	.	.	8dd#\J	.
*	*	*	*	*v	*v	*
*	*	*	*	*X8va	*
=47	=47	=47	=47	=47	=47
*	*	*	*	*^	*
!	!	!	!	!LO:TX:a:i:t=loco	!	!
8A'\L	p	8cc#\L	.	16ff#/	16cc#\LL	.
.	.	.	.	16raayy	16ee#X\	.
8B'\	.	8ddn\	.	8raayy	(16gg#\	.
.	.	.	.	.	16ee#\JJ)	.
8A'\	.	8cc#\	.	4raayy	(16ff#\LL	p
.	.	.	.	.	16ee#\)	.
8B'\J	.	8dd\J	.	.	(16gg#\	.
.	.	.	.	.	16ee#\JJ)	.
!	!	!	!	!	!LO:LB:g=original	!
8A'\L	.	8cc#\L	.	2raayy	(16ff#\LL	.
.	.	.	.	.	16ee#\)	.
8B'\	.	8dd\	.	.	(16gg#\	.
.	.	.	.	.	16ee#\JJ)	.
8A'\	.	8cc#\	.	.	(16ff#\LL	.
.	.	.	.	.	16ee#\)	.
8B'\J	.	8dd\J	.	.	(16gg#\	.
.	.	.	.	.	16ee#\JJ)	.
!LO:LB:g=original	!	!	!	!	!	!
=48	=48	=48	=48	=48	=48	=48
8A'\L	pp	8cc#\L	.	8ff#/L	8rc	pp
.	.	.	.	8qqbb/	.	.
8F#'\	.	8a'\	p	8aa/	8cc#\L	.
8G#'\	.	8b'\	.	8gg#/	8b\	.
8A'\J	.	8cc#'\J	.	8ff#/J	8a\J	.
8B'\	.	8b\	.	8ee/	8g#\	.
8r	.	8r	.	8raa	8rc	.
8BB'/	.	8a/	.	8dd#X/	8f#\	.
8r	.	8r	.	8raa	8rc	.
*	*	*	*	*v	*v	*
!	!	!LO:LB:g=original	!	!	!
=49	=49	=49	=49	=49	=49
!	!LO:DY:b:t=F	!	!	!	!LO:DY:b:t=F
4E\	f	4r	.	24e\LL	f
.	.	.	.	24ee\	.
.	.	.	.	24gg#\	.
.	.	.	.	24bb\	.
.	.	.	.	24gg#\	.
.	.	.	.	24ee\JJ	.
!	!	!	!LO:DY:b:t=F	!LO:TX:t=P:problem:mixed beam	!
4r	.	4B/ 4g#	f	24e/LL	.
.	.	.	.	24ee\	.
.	.	.	.	24gg#\	.
.	.	.	.	24bb\	.
.	.	.	.	24gg#\	.
.	.	.	.	24ee\JJ	.
4E\	.	4r	.	24eee\LL	.
.	.	.	.	24ee\	.
.	.	.	.	24ff#\	.
.	.	.	.	24gg#\	.
.	.	.	.	24ff#\	.
.	.	.	.	24ee\JJ	.
!	!	!	!	!LO:TX:t=P:problem:mixed beam	!
4r	.	4B/ 4g#	.	24e/LL	.
.	.	.	.	24ee\	.
.	.	.	.	24gg#\	.
.	.	.	.	24bb\	.
.	.	.	.	24gg#\	.
.	.	.	.	24ee\JJ	.
=50	=50	=50	=50	=50	=50
4BB/	.	4r	.	24B/LL	.
.	.	.	.	24b/	.
.	.	.	.	24dd#X/	.
.	.	.	.	24ff#/	.
.	.	.	.	24dd#/	.
.	.	.	.	24b/JJ	.
4r	.	4d#X/ 4f#	.	24B/LL	.
.	.	.	.	24b/	.
.	.	.	.	24dd#/	.
.	.	.	.	24ff#/	.
.	.	.	.	24dd#/	.
.	.	.	.	24b/JJ	.
4BB/	.	4r	.	24bb\LL	.
.	.	.	.	24b\	.
.	.	.	.	24cc#\	.
.	.	.	.	24dd#X\	.
.	.	.	.	24cc#\	.
.	.	.	.	24b\JJ	.
4r	.	4d#/ 4f#	.	24B/LL	.
.	.	.	.	24b/	.
.	.	.	.	24dd#/	.
.	.	.	.	24ff#/	.
.	.	.	.	24dd#/	.
.	.	.	.	24b/JJ	.
!	!	!	!	!LO:LB:g=original	!
=51	=51	=51	=51	=51	=51
4E\	p	4r	.	24e\LL	p
.	.	.	.	24ee\	.
.	.	.	.	24gg#\	.
.	.	.	.	24bb\	.
.	.	.	.	24gg#\	.
.	.	.	.	24ee\JJ	.
4r	.	4B/ 4g#	p	24e\LL	.
.	.	.	.	24ee\	.
.	.	.	.	24gg#\	.
.	.	.	.	24bb\	.
.	.	.	.	24gg#\	.
.	.	.	.	24ee\JJ	.
4E\	.	4r	.	24eee\LL	.
.	.	.	.	24ee\	.
.	.	.	.	24ff#\	.
.	.	.	.	24gg#\	.
.	.	.	.	24ff#\	.
.	.	.	.	24ee\JJ	.
!	!	!	!	!LO:TX:t=P:problem:mixed beam	!
4r	.	4B/ 4g#	.	24e/LL	.
.	.	.	.	24ee\	.
.	.	.	.	24gg#\	.
.	.	.	.	24bb\	.
.	.	.	.	24gg#\	.
.	.	.	.	24ee\JJ	.
=52	=52	=52	=52	=52	=52
4BB/	.	4r	.	24B/LL	.
.	.	.	.	24b/	.
.	.	.	.	24dd#X/	.
.	.	.	.	24ff#/	.
.	.	.	.	24dd#/	.
.	.	.	.	24b/JJ	.
4r	.	4d#X/ 4f#	.	24B/LL	.
.	.	.	.	24b/	.
.	.	.	.	24dd#/	.
.	.	.	.	24ff#/	.
.	.	.	.	24dd#/	.
.	.	.	.	24b/JJ	.
4BB/	.	4r	.	24bb\LL	.
.	.	.	.	24b\	.
.	.	.	.	24cc#\	.
.	.	.	.	24dd#\	.
.	.	.	.	24cc#\	.
.	.	.	.	24b\JJ	.
4r	.	4d#/ 4f#	.	24B/LL	.
.	.	.	.	24b/	.
.	.	.	.	24dd#/	.
.	.	.	.	24ff#/	.
.	.	.	.	24dd#/	.
.	.	.	.	24b/JJ	.
=53	=53	=53	=53	=53	=53
!	!LO:DY:b:t=F	!	!	!LO:TX:t=P:problem:mixed beam	!
4E\	f	4r	.	24e/LL	.
.	.	.	.	24ee\	.
.	.	.	.	24gg#\	.
.	.	.	.	24bb\	.
.	.	.	.	24gg#\	.
.	.	.	.	24ee\JJ	.
!	!	!	!LO:DY:b:t=F	!LO:TX:t=P:problem:mixed beam	!
4r	.	4B/ 4g#	f	24e/LL	.
.	.	.	.	24ee\	.
.	.	.	.	24gg#\	.
.	.	.	.	24bb\	.
.	.	.	.	24gg#\	.
.	.	.	.	24ee\JJ	.
!	!	!	!	!LO:LB:g=original	!
4AA/	.	4r	.	24a\LL	.
.	.	.	.	24aa\	.
.	.	.	.	24ccc#\	.
.	.	.	.	24eee\	.
.	.	.	.	24ccc#\	.
.	.	.	.	24aa\JJ	.
4r	.	4c#/ 4e	.	24a\LL	.
.	.	.	.	24aa\	.
.	.	.	.	24ccc#\	.
.	.	.	.	24eee\	.
.	.	.	.	24ccc#\	.
.	.	.	.	24aa\JJ	.
=54	=54	=54	=54	=54	=54
4BB/	p	4r	.	24B/LL	p
.	.	.	.	24b/	.
.	.	.	.	24dd#X/	.
.	.	.	.	24ff#/	.
.	.	.	.	24dd#/	.
.	.	.	.	24b/JJ	.
4r	.	4d#X/ 4f#	p	24B/LL	.
.	.	.	.	24b/	.
.	.	.	.	24dd#/	.
.	.	.	.	24ff#/	.
.	.	.	.	24dd#/	.
.	.	.	.	24b/JJ	.
4E\	.	4r	.	24e\LL	.
.	.	.	.	24ee\	.
.	.	.	.	24gg#\	.
.	.	.	.	24bb\	.
.	.	.	.	24gg#\	.
.	.	.	.	24ee\JJ	.
4r	.	4B/ 4g#	.	24e\LL	.
.	.	.	.	24ee\	.
.	.	.	.	24gg#\	.
.	.	.	.	24bb\	.
.	.	.	.	24gg#\	.
.	.	.	.	24ee\JJ	.
=55	=55	=55	=55	=55	=55
!	!LO:DY:b:t=F	!	!LO:DY:b:t=F	!	!
4AA/	f	4c#/ 4e	f	24A/LL	.
!	!	!	!	!	!LO:DY:b:t=F
.	.	.	.	24c#/	f
.	.	.	.	24e/	.
.	.	.	.	24a/	.
.	.	.	.	24cc#/	.
.	.	.	.	24ee/JJ	.
4r	.	4r	.	24A/LL	.
.	.	.	.	24c#/	.
.	.	.	.	24e/	.
.	.	.	.	24a/	.
.	.	.	.	24cc#/	.
.	.	.	.	24ee/JJ	.
4A\	.	4c#/ 4e	.	24a\LL	.
.	.	.	.	24cc#\	.
.	.	.	.	24ee\	.
.	.	.	.	24aa\	.
.	.	.	.	24ccc#\	.
.	.	.	.	24eee\JJ	.
4AA/	.	4c#/ 4e	.	24a\LL	.
.	.	.	.	24cc#\	.
.	.	.	.	24ee\	.
.	.	.	.	24aa\	.
.	.	.	.	24ccc#\	.
.	.	.	.	24eee\JJ	.
!	!	!	!	!LO:LB:g=original	!
=56	=56	=56	=56	=56	=56
4BB/	.	4B/ 4e	.	24b\LL	.
.	.	.	.	24bb\	.
.	.	.	.	24aa\	.
.	.	.	.	24gg#\	.
.	.	.	.	24ff#\	.
.	.	.	.	24ee\JJ	.
4r	.	4r	.	24dd#X\LL	.
.	.	.	.	24gg#\	.
.	.	.	.	24ff#\	.
.	.	.	.	24ee\	.
.	.	.	.	24dd#\	.
.	.	.	.	24cc#\JJ	.
2r	.	2r	.	24b\LL	.
.	.	.	.	24ee\	.
.	.	.	.	24dd#\	.
.	.	.	.	24cc#\	.
.	.	.	.	24b\	.
.	.	.	.	24a\JJ	.
.	.	.	.	24g#/LL	.
.	.	.	.	24b/	.
.	.	.	.	24a/	.
.	.	.	.	24g#/	.
.	.	.	.	24f#/	.
.	.	.	.	24e/JJ	.
=57	=57	=57	=57	=57	=57
!LO:TX:t=P:problem:mixed beam	!	!	!	!	!
8BB/L	.	8e/L	.	1f#T	.
(16B\L	.	8e/	.	.	.
16A#X\JJ	.	.	.	.	.
8B\L)	.	8e/	.	.	.
8B\J	.	8e/J	.	.	.
*	*	*tremolo	*	*	*
8r	.	8d#X/L	.	.	.
(16BB/LL	.	8d#/	.	.	.
16AA#X/JJ	.	.	.	.	.
8BB/L)	.	8d#/	.	.	.
8BB/J	.	8d#/J	.	.	.
*	*	*Xtremolo	*	*	*
!LO:LB:g=original	!	!LO:LB:g=original	!	!	!
=58	=58	=58	=58	=58	=58
!	!	!	!	!LO:TX:b:i:t=dol	!
[1E	p	4e/	p	(16g#/LL	.
.	.	.	.	16a/	.
.	.	.	.	16g#/	.
.	.	.	.	16f#/JJ	.
.	.	(4B/	.	16g#/LL	.
.	.	.	.	16e/	.
.	.	.	.	16a/	.
.	.	.	.	16f#/JJ)	.
.	.	4G#/	.	(4b/	.
.	.	4B/)	.	16a/LL	.
.	.	.	.	16g#/	.
.	.	.	.	16f#/	.
.	.	.	.	16e/JJ)	.
=59	=59	=59	=59	=59	=59
4.E\]	.	4.A/	.	(16cc#\LL	.
.	.	.	.	16dd#X\	.
.	.	.	.	16cc#\	.
.	.	.	.	16b#X\JJ	.
.	.	.	.	16cc#\LL	.
.	.	.	.	16a\	.
8F#\	.	8a/	.	16dd#\	.
.	.	.	.	16bn\JJ	.
8G#'\L	.	4g#/	.	4ee\)	.
8A'\	.	.	.	.	.
8B'\	.	4r	.	4r	.
8G#'\J	.	.	.	.	.
=60	=60	=60	=60	=60	=60
8A\L	pp	8r	.	(4.cc#t\	.
8G#\	.	(8e#X/	.	.	.
8A\	.	4f#/)	.	.	.
8F#\J	.	.	.	8aa\)	.
8G#\L	.	8r	.	(4.bT\	.
8F#\	.	(8d#X/	.	.	.
8G#\	.	4e#/)	.	.	.
8E\J	.	.	.	8gg#\)	.
!	!	!	!	!LO:LB:g=original	!
=61	=61	=61	=61	=61	=61
8F#\L	.	8r	.	(4.aT</	.
8E\	.	(8c#/	.	.	.
8F#\	.	4d#X/)	.	.	.
8D#X\J	.	.	.	8ff#\)	.
8E\L	.	8r	.	(4.g#t</	.
8D#\	.	8B/	.	.	.
8E\	.	4b\	.	.	.
8G#\J	.	.	.	8ee\)	.
=62	=62	=62	=62	=62	=62
4A\	.	8r	.	(16f#/LL	.
.	.	.	.	16g#/	.
.	.	8ff#\L	.	16f#/	.
.	.	.	.	16e#X/JJ)	.
4AA/	.	8cc#\	.	(16f#/LL	.
.	.	.	.	16c#/	.
.	.	8ff#\J	.	16A/	.
.	.	.	.	16a/JJ)	.
4A\	.	4cc#\	.	(16f#/LL	.
.	.	.	.	16a/)	.
.	.	.	.	(16a/	.
.	.	.	.	16cc#/JJ)	.
4r	.	4r	.	(16b/LL	.
.	.	.	.	16a/	.
.	.	.	.	16g#/	.
.	.	.	.	16f#/JJ)	.
=63	=63	=63	=63	=63	=63
4B\	.	4g#/	.	(16b\LL	.
.	.	.	.	16ee\	.
.	.	.	.	16dd#X\	.
.	.	.	.	16cc#\JJ	.
4r	.	4r	.	16b\LL	.
.	.	.	.	16a#X\	.
.	.	.	.	16an\	.
.	.	.	.	16g#\JJ)	.
8B\L	.	8e/L	.	2f#T</	.
8B\	.	8e/	.	.	.
8BB/	.	8d#X/	.	.	.
8BB/J	.	8d#/J	.	.	.
!	!	!LO:LB:g=original	!	!	!
=64	=64	=64	=64	=64	=64
*	*	*	*	*^	*
[1E	p <	8e/L	.	8e`/L	8rc	.
.	.	8B/	.	(24b/L	(24g#\LL	.
.	.	.	.	24cc#/	24a\	.
.	.	.	.	24b/JJ	24g#\JJ	.
.	.	8d#X/	.	8a/L)	8f#\L)	.
.	.	8B/J	.	24aa/L	(24ff#\L	.
.	.	.	.	(24bb/	24gg#\	.
.	.	.	.	24aa/JJ	24ff#\JJ	.
.	.	8e/L	.	8gg#/L)	8ee\L)	.
.	.	8B/	.	(24b/L	(24g#\L	.
.	.	.	.	24cc#/	24a\	.
.	.	.	.	24b/JJ	24g#\JJ	.
.	.	8d#/	.	8a/L)	8f#\L)	.
.	.	8B/J	.	8f#/J	8B\J	.
=65	=65	=65	=65	=65	=65	=65
1E]	.	8e/L	.	8e/L	8e\L	.
!	!	!	!	!LO:TX:b:i:t=rinf	!	!
.	.	8B/	.	(24b/L	(24g#\L	.
.	.	.	.	24cc#/	24a\	.
.	.	.	.	24b/JJ	24g#\JJ	.
.	.	8d#X/	.	8a/L)	8f#\L)	.
.	.	8B/J	.	24aa/L	(24ff#\L	.
.	.	.	.	(24bb/	24gg#\	.
.	.	.	.	24aa/JJ	24ff#\JJ	.
.	.	8e/L	.	8gg#/L)	8ee\L)	.
.	.	8B/	.	(24b/L	(24g#\L	.
.	.	.	.	24cc#/	24a\	.
.	.	.	.	24b/JJ	24g#\JJ	.
.	.	8d#/	.	8a/L)	8f#\L)	.
.	[	8B/J	.	8f#/J	8B\J	.
*	*	*	*	*v	*v	*
!	!	!	!	!LO:LB:g=original	!
=66	=66	=66	=66	=66	=66
4.E\	p	8e/	.	4.G#/ 4.e	p
.	.	4ee\	p	.	.
.	.	.	.	8qqg#/	.
8BB/	.	8dd#X\	.	8B/ 8f#	.
8EE/L	.	(8ee\L	.	8G#/L 8e	.
.	.	.	.	8qqg#/	.
8BB/	.	8dd#\	.	8B/ 8f#	.
8E/	.	8ee\	.	8G#/ 8e	.
.	.	.	.	8qqg#/	.
8BB/J	.	8dd#\J)	.	8B/J 8f#	.
!LO:LB:g=original	!	!	!	!	!
=67	=67	=67	=67	=67	=67
!	!	!	!	!	!LO:DY:a
4EE/	.	4ee\	pp	[2G#/ 2e	pp
4E\	.	4g#/ 4b	.	.	.
4EE;</	.	4g#;/ 4b	.	4G#;/] 4e	.
4r	.	4r	.	4r	.
=68||	=68||	=68||	=68||	=68||	=68||
!	!LO:DY:b:t=F	!	!LO:DY:b:t=F	!	!
8C#'/L	f	8B/L	f	4.e#X/	.
8C#'/	.	8B/	.	.	.
8C#'/	.	8B/	.	.	.
!	!	!	!	!	!LO:DY:b:t=F
.	.	.	.	8qqg#/	f
8C#'/J	.	8B/J	.	8f#/	.
*tremolo	*	*tremolo	*	*	*
!	!	!LO:TX:t=P:problem: 4x staccato	!	!	!
8C#/L	.	8B'/L	.	8e#/L	.
.	.	.	.	8qqg#/	.
8C#/	.	8B'/	.	8f#/	.
8C#/	.	8B'/	.	8e#/	.
.	.	.	.	8qqg#/	.
8C#/J	.	8B'/J	.	8f#/J	.
=69	=69	=69	=69	=69	=69
8C#/L	.	8B/L	.	(16e#X/LL	.
.	.	.	.	16f#/	.
8C#/	.	8B/	.	16g#/	.
.	.	.	.	16f#/JJ	.
8C#/	.	8B/	.	16e#/LL	.
.	.	.	.	16f#/	.
8C#/J	.	8B/J	.	16g#/	.
.	.	.	.	16a/JJ)	.
8C#/L	.	8B/L	.	(16b/LL	.
.	.	.	.	16dd/	.
8C#/	.	8B/	.	16cc#/	.
.	.	.	.	16b/JJ	.
8C#/	.	8B/	.	16a/LL	.
.	.	.	.	16g#/	.
8C#/J	.	8B/J	.	16f#/	.
.	.	.	.	16e#/JJ)	.
*	*	*Xtremolo	*	*	*
!	!	!LO:LB:g=original	!	!	!
=70	=70	=70	=70	=70	=70
8C#/L	.	8A/L	.	4.f#/	.
8C#/	.	8A/	.	.	.
8C#/	.	8A/	.	.	.
.	.	.	.	8qqa/	.
8C#/	.	8A/J	.	8g#/	.
*	*	*tremolo	*	*	*
8C#/	.	8A/L	.	8f#/L	.
.	.	.	.	8qqa/	.
8C#/	.	8A/	.	8g#/	.
8C#/	.	8A/	.	8f#/	.
.	.	.	.	8qqa/	.
8C#/J	.	8A/J	.	8g#/J	.
=71	=71	=71	=71	=71	=71
8C#/L	.	8A/L	.	(16f#/LL	.
.	.	.	.	16g#/	.
8C#/	.	8A/	.	16f#/	.
.	.	.	.	16e#X/JJ	.
8C#/	.	8A/	.	16f#/LL	.
.	.	.	.	16g#/	.
8C#/J	.	8A/J	.	16a/	.
.	.	.	.	16b/JJ)	.
8C#/L	.	8A/L	.	(16cc#/LL	.
.	.	.	.	16b#X/	.
8C#/	.	8A/	.	16cc#/	.
.	.	.	.	16b#/JJ	.
8C#/	.	8A/	.	16cc#/LL	.
.	.	.	.	16a/	.
8C#/J	.	8A/J	.	16g#/	.
.	.	.	.	16f#/JJ)	.
!	!	!	!	!LO:LB:g=original	!
*	*	*Xtremolo	*	*	*
=72	=72	=72	=72	=72	=72
8C#/L	p	(8en/L	.	4.gn/	.
8C#/	.	8A/	.	.	.
8C#/	.	8e/	.	.	.
.	.	.	.	8qqb/	.
8C#/J	.	8A/J)	.	8a/	.
8C#/L	.	(8e/L	.	8g/L	.
.	.	.	.	8qqb/	.
8C#/	.	8A/	.	8a/J	.
8C#/	.	8e/	.	16g/LL	.
.	.	.	.	16a/	.
8C#/J	.	8A/J)	.	16b/	.
.	.	.	.	16g/JJ	.
=73	=73	=73	=73	=73	=73
8Dn\L	.	(8dn/L	.	4.f#/	.
8D\	.	8A/	.	.	.
8D\	.	8d/	.	.	.
.	.	.	.	8qqa/	.
8D\J	.	8A/J)	.	8gn/	.
8D\L	.	(8d/L	.	8f#/L	.
.	.	.	.	8qqa/	.
8D\	.	8A/	.	8g/J	.
8D\	.	8d/	.	16f#/LL	.
.	.	.	.	16g/	.
8D\J	.	8A/J)	.	16a/	.
.	.	.	.	16g/JJ	.
=74	=74	=74	=74	=74	=74
8C#/L	.	(8e/L	.	4.gn/	.
8C#/	.	8A/	.	.	.
8C#/	.	8e/	.	.	.
.	.	.	.	8qqb/	.
8C#/J	.	8A/J)	.	8a/	.
8C#/L	.	(8e/L	.	8g/L	.
.	.	.	.	8qqb/	.
8C#/	.	8A/	.	8a/J	.
8C#/	.	8e/	.	16g/LL	.
.	.	.	.	16a/	.
8C#/J	.	8A/J)	.	16b/	.
.	.	.	.	16g/JJ	.
=75	=75	=75	=75	=75	=75
8D\L	.	8d/L	.	4.f#/	.
8D\	.	8A/	.	.	.
8D\	.	8A/	.	.	.
.	.	.	.	8qqa/	.
8D\J	.	8A/J	.	8g#X/	.
*Xtremolo	*	*	*	*	*
!	!LO:HP:b:t=cres	!	!	!	!
8D/L	<	8r	.	8f#/L	.
!	!	!	!	!	!LO:HP:b:t=cres
.	.	.	.	8qqa/	<
8D/	.	8A/L	.	8g#/J	.
8C#/	.	8A/	.	16f#/LL	.
.	.	.	.	16g#/	.
8C#/J	.	8A/J	.	16a/	.
.	.	.	.	16g#/JJ	.
!	!	!LO:LB:g=original	!	!	!
=76	=76	=76	=76	=76	=76
*tremolo	*	*	*	*	*
8BB#X/L	.	8r	.	4.f#/	.
8BB#/	.	(8A/L	.	.	.
8BB#/	.	8d#X/)	.	.	.
!	!	!	!	!LO:TX:b:i:t=rinf	!
.	.	.	.	8qqa/	.
8BB#/J	.	8d#`/J	.	8g#X/	.
8BB#/L	.	8r	.	8f#/L	.
.	.	.	.	8qqa/	.
!	!	!	!LO:HP:b:t=cres	!	!
8BB#/	.	8d#/L	<	8g#/J	.
8BB#/	.	8A/	.	16f#/LL	.
.	.	.	.	16g#/	.
8BB#/J	.	8A/J	.	16a/	.
.	.	.	.	16g#/JJ	.
*Xtremolo	*	*	*	*	*
!	!	!	!	!LO:LB:g=original	!
=77	=77	=77	=77	=77	=77
!	!	!LO:TX:a:i:t=rinf	!	!LO:TX:a:i:t=dol	!
4C#/	.	(4G#X/	.	16e#X/LL	.
.	.	.	.	(16cc#/	.
.	.	.	.	16b#X/)	.
.	.	.	.	(16cc#/JJ	.
8r	.	8A/L)	.	16a/LL)	.
.	.	.	.	(16g#/	.
8BB#X/	.	(8d#X/J	.	16a/)	.
.	.	.	.	(16f#/JJ	.
4C#/	.	8c#/L)	.	16e#/LL)	.
.	.	.	.	(16cc#/	.
.	.	(8G#/	.	16b#/)	.
.	.	.	.	(16cc#/JJ	.
8r	.	8A/	.	16a/LL)	.
.	.	.	.	(16g#/	.
!	!LO:DY:b:t=F	!	!	!	!
8BB#X/	f	(8d#/J)	.	16a/)	.
.	.	.	.	(16f#/JJ	.
!LO:LB:g=original	!	!	!	!	!
=78	=78	=78	=78	=78	=78
!	!	!	!LO:DY:b:t=F	!	!
4C#/	.	8c#/L)	f	16e#X/LL)	.
.	.	.	.	(16cc#/	.
.	.	8G#'/	.	16b#X/)	.
.	.	.	.	(16cc#/JJ	.
4C#/	.	8G#'/	.	16ee/LL	.
.	.	.	.	16cc#/)	.
.	.	8G#'/J	.	16g#'/	.
.	.	.	.	16e#'/JJ	.
4C#/	.	4G#/	.	4c#/	.
4r	.	4r	.	4r	.
=79	=79	=79	=79	=79	=79
!	!	!	!	!LO:TX:a:i:t=dol	!
8r	.	8r	.	1cc#	<
(8A\L	p	(8cc#/L	p	.	.
8G#\	.	8b/	.	.	.
8F#\J	.	8a/J	.	.	.
8E#X\L	.	8g#/L	.	.	.
8F#\	.	8a/	.	.	.
8G#\	.	8b/	.	.	.
8E#\J)	.	8g#/J)	.	.	[
=80	=80	=80	=80	=80	=80
.	.	.	.	8qqcc#/	>
4F#\	.	4a/	.	4.aa\	.
4r	.	4r	.	.	.
.	.	.	.	8gg#\	.
2r	.	2r	.	4ff#\	]
.	.	.	.	4r	.
=81	=81	=81	=81	=81	=81
8r	.	8r	.	1cc#t	.
(8A\L	.	(8cc#/L	.	.	.
8G#\	.	8b/	.	.	.
8F#\J	.	8a/J	.	.	.
8E#X\L	.	8g#/L	.	.	.
8F#\	.	8a/	.	.	.
8G#\	.	8b/	.	.	.
8E#\J)	.	8g#/J)	.	.	.
!	!	!LO:LB:g=original	!	!	!
=82	=82	=82	=82	=82	=82
.	.	.	.	8qqcc#/	.
4F#\	.	4a/	.	4.aa\	.
4r	.	4r	.	.	.
.	.	.	.	8gg#\	.
2r	.	2r	.	4ff#\	.
.	.	.	.	4r	.
=83	=83	=83	=83	=83	=83
!LO:TX:b:i:t=lento	!	!	!	!LO:TX:a:i:t=lento	!
8F#'\L	.	8a#X'\L	.	4.ccc#\	>
!	!	!LO:TX:a:i:t=lento	!	!	!
8G#'\	.	8b'\	.	.	.
8A#X'\	.	8cc#'\	.	.	.
8B'\J	.	8dd'\J	.	8bb\	.
2F#;\	.	2cc#;\ 2ee	.	2aa#X;\	]
=84	=84	=84	=84	=84	=84
8r	.	8r	.	1ff#	<[
(8d\L	p	(8f#/L	.	.	.
8c#\	.	8e/	.	.	.
8B\J	.	8d/J	.	.	.
8A#X\L	.	8c#/L	.	.	.
8B\	.	8d/	.	.	.
8c#\	.	8e/	.	.	.
8A#\J)	.	8c#/J)	.	.	.
=85	=85	=85	=85	=85	=85
.	.	.	.	8qqff#/	>
4B\	.	4d/	.	4.ddd\	.
4r	.	4r	.	.	.
.	.	.	.	8ccc#\	.
2r	.	2r	.	4bb\	]
.	.	.	.	4r	.
!	!	!	!	!LO:LB:g=original	!
!LO:LB:g=original	!	!	!	!	!
=86	=86	=86	=86	=86	=86
!LO:TX:b:i:t=lento	!	!LO:TX:a:i:t=lento	!	!LO:TX:b:i:t=lento	!
8B'\L	.	8d#X/L	.	4.fff#\	.
8c#'\	.	8e/	.	.	.
8d#X'\	.	8f#/	.	.	.
8e'\J	.	8g#/J	.	8eee\	.
2B;\	.	2f#;/ 2a	.	2ddd#X;\	.
=87	=87	=87	=87	=87	=87
!	!LO:DY:b:t=F	!	!	!	!
4E\	f	4B/ 4gn	.	16eee\LL	.
!	!	!	!	!	!LO:DY:b:t=F
.	.	.	.	16bb\	f
.	.	.	.	16cccn\	.
.	.	.	.	16bb\JJ	.
4r	.	4r	.	16aa\LL	.
.	.	.	.	16ggn\	.
.	.	.	.	16ff#\	.
.	.	.	.	16ee\JJ	.
4E\	.	4g/ 4b	.	16eee\LL	.
.	.	.	.	16bb\	.
.	.	.	.	16ccc\	.
.	.	.	.	16bb\JJ	.
4r	.	4r	.	16aa\LL	.
.	.	.	.	16gg\	.
.	.	.	.	16ff#\	.
.	.	.	.	16ee\JJ	.
=88	=88	=88	=88	=88	=88
*	*	*	*	*^	*
4F#\	.	4a/	.	16rff	[2.dd#X\	.
.	.	.	.	16cccn/LL	.	.
.	.	.	.	16bb/	.	.
.	.	.	.	16ccc/JJ	.	.
4r	.	4f#/	.	16bb/LL	.	.
.	.	.	.	16ccc/	.	.
.	.	.	.	16bb/	.	.
.	.	.	.	16ccc/JJ	.	.
4F#\	.	4d#X/	.	16bb/LL	.	.
.	.	.	.	16ccc/	.	.
.	.	.	.	16bb/	.	.
.	.	.	.	16ccc/JJ	.	.
4r	.	8f#/L	.	16bb/LL	8dd#\L]	.
.	.	.	.	16ccc/	.	.
.	.	8d#/J	.	16bb/	8ff#\J	.
.	.	.	.	16aa/JJ	.	.
=89	=89	=89	=89	=89	=89	=89
4E\	.	4e/	.	16ggn/LL	8ee\	.
.	.	.	.	16bb/	.	.
.	.	.	.	16cccn/	8rcyy	.
.	.	.	.	16bb/JJ	.	.
4r	.	4r	.	16aa\LL	4rcyy	.
.	.	.	.	16gg\	.	.
.	.	.	.	16ff#\	.	.
.	.	.	.	16ee\JJ	.	.
4E\	.	4g#/ 4b	.	16eee\LL	2rcyy	.
.	.	.	.	16ccc\	.	.
.	.	.	.	16ddd\	.	.
.	.	.	.	16bb\JJ	.	.
4r	.	4r	.	16aa\LL	.	.
.	.	.	.	16gg\	.	.
.	.	.	.	16ff#\	.	.
.	.	.	.	16ee\JJ	.	.
!	!	!LO:LB:g=original	!	!	!	!
=90	=90	=90	=90	=90	=90	=90
4F#\	.	4a/	.	16rff	[2.dd#X\	.
.	.	.	.	16cccn/LL	.	.
.	.	.	.	16bb/	.	.
.	.	.	.	16ccc/JJ	.	.
4r	.	2f#/	.	16bb/LL	.	.
.	.	.	.	16ccc/	.	.
.	.	.	.	16bb/	.	.
.	.	.	.	16ccc/JJ	.	.
4F#\	.	.	.	16bb/LL	.	.
.	.	.	.	16ccc/	.	.
.	.	.	.	16bb/	.	.
.	.	.	.	16ccc/JJ	.	.
4r	.	4dd#X\	.	16bb/LL	8dd#\L]	.
.	.	.	.	16ccc/	.	.
.	.	.	.	16bb/	8ff#\J	.
.	.	.	.	16aa/JJ	.	.
!	!	!	!	!LO:LB:g=original	!	!
=91	=91	=91	=91	=91	=91	=91
!	!	!LO:TX:b:i:t=rinf	!	!	!	!
2G#\	.	(16ee\LL	.	8bb/	8ee\L	.
.	.	16ffn\	.	.	.	.
.	.	16ee\	.	8raayy	16gg#X\L	.
.	.	16ff\JJ)	.	.	16aa\JJ	.
.	.	(16ee\LL	.	4raayy	8bb\L	.
.	.	16ff\	.	.	.	.
.	.	16ee\	.	.	8dddn\J	.
.	.	16ff\JJ)	.	.	.	.
4G#\	.	(16ee\LL	.	2raayy	2bb\	.
.	.	16ff\	.	.	.	.
.	.	16ee\	.	.	.	.
.	.	16ff\JJ)	.	.	.	.
4G#\	.	(16ee\LL	.	.	.	.
.	.	16ff\	.	.	.	.
.	.	16ee\	.	.	.	.
.	.	16dd\JJ)	.	.	.	.
*	*	*	*	*v	*v	*
=92	=92	=92	=92	=92	=92
(16A\LL	.	8cc#X\L	.	2.ccc#X\	.
16B-X\	.	.	.	.	.
16A\	.	16cc#\L	.	.	.
16B-\JJ)	.	16dd\JJ	.	.	.
(16A\LL	.	8ee\L	.	.	.
16B-\	.	.	.	.	.
16A\	.	8ggn\J	.	.	.
16B-\JJ)	.	.	.	.	.
(16A\LL	.	2ee\	.	.	.
16B-\	.	.	.	.	.
16A\	.	.	.	.	.
16B-\JJ)	.	.	.	.	.
(16A\LL	.	.	.	4ccc#\	.
16B-\	.	.	.	.	.
16A\	.	.	.	.	.
16Gn\JJ)	.	.	.	.	.
!LO:LB:g=original	!	!	!	!	!
=93	=93	=93	=93	=93	=93
!	!	!LO:TX:b:i:t=rinf	!	!	!
8F#\L	.	(16dd\LL	.	4.cccn\	.
.	.	16ee-X\	.	.	.
16F#\L	.	16dd\	.	.	.
16Gn\JJ	.	16ee-\JJ)	.	.	.
8A\L	.	(16dd\LL	.	.	.
.	.	16ee-\	.	.	.
8cn\J	.	16dd\	.	8aa\	.
.	.	16ee-\JJ)	.	.	.
2A\	.	(16dd\LL	.	2ff#\	.
.	.	16ee-\	.	.	.
.	.	16dd\	.	.	.
.	.	16ee-\JJ)	.	.	.
.	.	(16dd\LL	.	.	.
.	.	16ee-\	.	.	.
.	.	16dd\	.	.	.
.	.	16ccn\JJ)	.	.	.
!	!	!LO:LB:g=original	!	!	!
=94	=94	=94	=94	=94	=94
!	!LO:DY:b:t=F	!	!LO:DY:b:t=F	!	!
(16Gn\LL	f	(16b/LL	f	16ggn\LL	.
16A\	.	16a/	.	16aa\	.
16G\	.	16gn/	.	16gg\	.
!	!	!	!	!LO:TX:b:i:t=rinf	!
16A\JJ)	.	16a/JJ)	.	16aa\JJ	.
(16G\LL	.	(16g/LL	.	16gg\LL	.
16A\	.	16a/	.	16aa\	.
16G\	.	16g/	.	16gg\	.
16A\JJ)	.	16a/JJ)	.	16aa\JJ	.
(16G\LL	.	(16g/LL	.	16gg\LL	.
16A\	.	16a/	.	16aa\	.
16G\	.	16g/	.	16gg\	.
16A\JJ)	.	16a/JJ)	.	16aa\JJ	.
(16G\LL	.	(16g/LL	.	16gg\LL	.
16A\	.	16a/	.	16ffn\	.
16G\	.	16g/	.	16ee\	.
!	!	!	!	!	!LO:DY:b:t=F
16Fn\JJ)	.	16a/JJ)	.	16dd\JJ	f
=95	=95	=95	=95	=95	=95
4E\	.	4gn/	.	16ccn\LL	.
.	.	.	.	16ggn\	.
.	.	.	.	16aa\	.
.	.	.	.	16gg\JJ	.
4r	.	4r	.	16ffn\LL	.
.	.	.	.	16ee\	.
.	.	.	.	16dd\	.
.	.	.	.	16cc\JJ	.
4Cn/	.	4Gny/ 4e	.	16cccny\LL	.
.	.	.	.	16gg\	.
.	.	.	.	16aa\	.
.	.	.	.	16gg\JJ	.
4r	.	4r	.	16ff\LL	.
.	.	.	.	16ee\	.
.	.	.	.	16dd\	.
.	.	.	.	16cc\JJ	.
=96	=96	=96	=96	=96	=96
*	*	*	*	*^	*
4D\	.	2.fn/	.	16rdd	[2.b\	.
.	.	.	.	16aa/LL	.	.
.	.	.	.	16ggn/	.	.
.	.	.	.	16aa/JJ	.	.
4r	.	.	.	16gg/LL	.	.
.	.	.	.	16aa/	.	.
.	.	.	.	16gg/	.	.
.	.	.	.	16aa/JJ	.	.
4Gn\	.	.	.	16gg/LL	.	.
.	.	.	.	16aa/	.	.
.	.	.	.	16gg/	.	.
.	.	.	.	16aa/JJ	.	.
4r	.	8d/L	.	16gg/LL	8b\L]	.
.	.	.	.	16aa/	.	.
.	.	8B/J	.	16gg/	8dd\J	.
.	.	.	.	16ffn/JJ	.	.
!	!	!	!	!LO:LB:g=original	!	!
=97	=97	=97	=97	=97	=97	=97
4Cn/	.	4cn/	.	16ee/LL	8ccny\	.
.	.	.	.	16ee/	.	.
.	.	.	.	16ffn/	8rcyy	.
.	.	.	.	16ee/JJ	.	.
4r	.	4r	.	16dd\LL	4rcyy	.
.	.	.	.	16ccn\	.	.
.	.	.	.	16b\	.	.
.	.	.	.	16a\JJ	.	.
4AA/	.	4c/ 4e	.	16aa\LL	2rcyy	.
.	.	.	.	16ee\	.	.
.	.	.	.	16ffn\	.	.
.	.	.	.	16ee\JJ	.	.
4r	.	4r	.	16dd\LL	.	.
.	.	.	.	16cc\	.	.
.	.	.	.	16b\	.	.
.	.	.	.	16a\JJ	.	.
=98	=98	=98	=98	=98	=98	=98
4BB/	.	2.d/	.	16r	[2.g#X\	.
.	.	.	.	16ffn/LL	.	.
.	.	.	.	16ee/	.	.
.	.	.	.	16ff/JJ	.	.
4r	.	.	.	16ee/LL	.	.
.	.	.	.	16ff/	.	.
.	.	.	.	16ee/	.	.
.	.	.	.	16ff/JJ	.	.
4E\	.	.	.	16ee/LL	.	.
.	.	.	.	16ff/	.	.
.	.	.	.	16ee/	.	.
.	.	.	.	16ff/JJ	.	.
4r	.	8B/L	.	16ee/LL	8g#\L]	.
.	.	.	.	16ff/	.	.
.	.	8G#X/J	.	16ee/	8b\J	.
.	.	.	.	16dd/JJ	.	.
*	*	*	*	*v	*v	*
!LO:LB:g=original	!	!	!	!	!
=99	=99	=99	=99	=99	=99
4.A\	p	4A/	.	16a\LL 16ccn	p
.	.	.	.	16b\ 16dd	.
.	.	.	.	16ccn\ 16ee	.
.	.	.	.	16b\JJ 16dd	.
.	.	4r	.	8a\L 8ccn	.
8Gn\	.	.	.	8a\J 8cc	.
4.Fn\	.	2r	.	16a\LL 16cc	.
.	.	.	.	16b\ 16dd	.
.	.	.	.	16cc\ 16ee	.
.	.	.	.	16b\JJ 16dd	.
.	.	.	.	8a\L 8cc	.
8E\	.	.	.	8a\J 8cc	.
=100	=100	=100	=100	=100	=100
*	*	*	*	*^	*
!	!LO:HP:a:t=cres	!	!LO:HP:b:t=cres	!	!	!
4D#X\	<	1f#X	<	16ccn/LL	16a\LL	.
.	.	.	.	16b/	16g#\	.
.	.	.	.	16cc/	16a\	.
.	.	.	.	16cc/JJ	16a\JJ	.
4D#\	.	.	.	16cc/LL	16a\LL	.
.	.	.	.	16b/	16g#\	.
.	.	.	.	16cc/	16a\	.
.	.	.	.	16cc/JJ	16a\JJ	.
4D#\	.	.	.	16cc/LL	2a\	.
.	.	.	.	16b/	.	.
.	.	.	.	16cc/	.	.
.	.	.	.	16cc/JJ	.	.
4D#\	.	.	.	16cc/LL	.	.
.	.	.	.	16b/	.	.
.	.	.	.	16cc/	.	.
.	.	.	.	16cc/JJ	.	.
!	!	!LO:LB:g=original	!	!LO:LB:g=original	!	!
=101	=101	=101	=101	=101	=101	=101
!	!LO:DY:b:t=F	!	!LO:DY:b:t=F	!	!	!LO:DY:b:t=F
[1E	f	8B/L	f	16b/	16g#X\LL	f
.	.	.	.	16raayy	16e\	.
.	.	8g#X/	.	8raayy	16f#X\	.
.	.	.	.	.	16g#\JJ	.
.	.	8B/	.	4raayy	16a\LL	.
.	.	.	.	.	16b\	.
.	.	8g#/J	.	.	16ccn\	.
.	.	.	.	.	16dd#X\JJ	.
.	.	8B/L	.	2raayy	16ee\LL	.
.	.	.	.	.	16ff#\	.
.	.	8g#X/	.	.	16gg#\	.
.	.	.	.	.	16aa\JJ	.
.	.	8B/	.	.	16bb\LL	.
.	.	.	.	.	16gg#\	.
.	.	8g#/J	.	.	16ff#\	.
.	.	.	.	.	16ee\JJ	.
*	*	*	*	*v	*v	*
=102	=102	=102	=102	=102	=102
1E]	.	8cn/L	.	(16aa\LL	.
.	.	.	.	16cccn\)	.
.	.	8a/	.	(16ccc\	.
.	.	.	.	16aa\JJ)	.
.	.	8f#/	.	(16aa\LL	.
.	.	.	.	16ff#\)	.
.	.	8a/J	.	(16ff#\	.
.	.	.	.	16dd#X\JJ)	.
.	.	8ccn\L	.	(16dd#\LL	.
.	.	.	.	16cc#\)	.
.	.	8ff#\	.	(16cc#\	.
.	.	.	.	16a\JJ)	.
.	.	8aa\	.	16a`\LL	.
.	.	.	.	16cc#`\	.
.	.	8ccc#\J	.	16b`\	.
.	.	.	.	16a`\JJ	.
=103	=103	=103	=103	=103	=103
!	!	!LO:TX:t=P:problem:mixed beam	!	!	!
[1E	p	8bb\L	p	16g#/LL	.
.	.	.	.	16e/	.
.	.	8b/	.	16f#/	.
.	.	.	.	16g#/JJ	.
.	.	8g#/	.	16a\LL	.
.	.	.	.	16b\	.
.	.	8b/J	.	16ccn\	.
.	.	.	.	16dd#X\JJ	.
.	.	8g#/L	.	16ee\LL	.
.	.	.	.	16ff#\	.
.	.	8b/	.	16gg#\	.
.	.	.	.	16aa\JJ	.
.	.	8g#/	.	16bb\LL	.
.	.	.	.	16gg#\	.
.	.	8b/J	.	16ff#\	.
.	.	.	.	16ee\JJ	.
!	!	!	!	!LO:LB:g=original	!
=104	=104	=104	=104	=104	=104
1E]	.	8ccn/L	.	16aa\LL	.
.	.	.	.	16cccn\	.
.	.	8a/	.	16ccc\	.
.	.	.	.	16aa\JJ	.
.	.	8f#/	.	16aa\LL	.
.	.	.	.	16ff#\	.
.	.	8a/J	.	16ff#\	.
.	.	.	.	16dd#X\JJ	.
.	.	8cc\L	.	16dd#/LL	.
.	.	.	.	16cc#/	.
.	.	8ff#\	.	16cc#/	.
.	.	.	.	16a/JJ	.
.	.	8aa\	.	16a/LL	.
.	.	.	.	16cc#/	.
.	.	8ccc#\J	.	16b/	.
.	.	.	.	16a/JJ	.
=105	=105	=105	=105	=105	=105
!	!LO:HP:b:t=cres	!	!	!	!
4E\	<	4bb\	.	16g#/LL	.
.	.	.	.	16b/	.
.	.	.	.	16g#/	.
.	.	.	.	16e/JJ	.
8r	.	8r	.	16a/LL	.
.	.	.	.	16ccn/	.
!	!	!	!LO:HP:b:t=cres	!	!
8D#X\	.	8f#/	<	16b/	.
.	.	.	.	16a/JJ	.
4E\	.	4e/	.	16g#/LL	.
.	.	.	.	16b/	.
.	.	.	.	16g#/	.
.	.	.	.	16e/JJ	.
8r	.	8r	.	16a/LL	.
.	.	.	.	16cc/	.
8D#\	.	8f#/	.	16b/	.
.	.	.	.	16a/JJ	.
!	!	!LO:LB:g=original	!	!	!
=106	=106	=106	=106	=106	=106
!	!LO:DY:b:t=F	!	!	!	!LO:DY:b:t=F
8E\	f	8B/	.	8g#/L	f
8r	.	8r	.	24g#/L	.
.	.	.	.	24e/	.
.	.	.	.	24B/JJ	.
!	!	!	!LO:DY:b:t=F	!	!
8E\	.	8B/	f	8G#/L	.
8r	.	8r	.	24b/L	.
.	.	.	.	24g#/	.
.	.	.	.	24e/JJ	.
8E\	.	8B/	.	8B/L	.
8r	.	8r	.	24ee/L	.
.	.	.	.	24b/	.
.	.	.	.	24g#/JJ	.
8E\	.	8B/	.	8e/L	.
8r	.	8r	.	24gg#/L	.
.	.	.	.	24ee/	.
.	.	.	.	24cc#/JJ	.
=107	=107	=107	=107	=107	=107
8E\	.	8B/	.	8g#\L	.
8r	.	8r	.	24bb\L	.
.	.	.	.	24gg#\	.
.	.	.	.	24ee\JJ	.
8E\	.	8g#/	.	8b\L	.
8r	.	8r	.	24bb\L	.
.	.	.	.	24gg#\	.
.	.	.	.	24ee\JJ	.
4E\	.	4g#`/	.	8b`\L	.
.	.	.	.	8eee`\J	.
4r;	.	4r;	.	4r;	.
!	!	!	!	!LO:LB:g=original	!
=108	=108	=108	=108	=108	=108
!	!	!	!	!LO:TX:b:i:t=dol	!
[1AA	p	(2e/	p	(16cc#X\LL	.
.	.	.	.	16dd\	.
.	.	.	.	16cc#\	.
.	.	.	.	16b\JJ	.
.	.	.	.	16cc#\LL	.
.	.	.	.	16a\	.
.	.	.	.	16dd\	.
.	.	.	.	(16b\JJ)	.
.	.	4c#X/	.	4ee\	.
.	.	4e/)	.	16dd\LL	.
.	.	.	.	16cc#\	.
.	.	.	.	16b\	.
.	.	.	.	16a\JJ)	.
=109	=109	=109	=109	=109	=109
4.AA/]	.	2d/	.	(16ff#\LL	.
.	.	.	.	16gg#\	.
.	.	.	.	16ff#\	.
.	.	.	.	16ee#X\JJ	.
.	.	.	.	16ff#\LL	.
.	.	.	.	16dd\	.
8BB/	.	.	.	16gg#\	.
.	.	.	.	16een\JJ)	.
8C#/L	.	4c#/	.	4aa\	.
8E/	.	.	.	.	.
8C#/	.	4e/	.	4r	.
8AA/J	.	.	.	.	.
!LO:LB:g=original	!	!	!	!	!
=110	=110	=110	=110	=110	=110
*	*	*	*	*8va	*
[1E	.	4r	.	16bb/LL	.
.	.	.	.	(16ccc#/	.
.	.	.	.	16bb/	.
.	.	.	.	16aa/JJ	.
.	.	4e/ 4b	.	16gg#/LL	.
.	.	.	.	16ff#/	.
.	.	.	.	16gg#/	.
.	.	.	.	16ee/JJ)	.
.	.	4r	.	(16ccc#\LL	.
.	.	.	.	16ddd\	.
.	.	.	.	16ccc#\	.
.	.	.	.	16bb\JJ	.
.	.	4e/ 4a	.	16ccc#\LL	.
.	.	.	.	16aa\	.
.	.	.	.	16eee\	.
.	.	.	.	16ccc#\JJ)	.
=111	=111	=111	=111	=111	=111
4E\]	.	8g#/L	.	16bb`\LL	.
.	.	.	.	(16ddd#X\	.
.	.	8a/	.	16eee\	.
.	.	.	.	16ccc#\JJ	.
4E\	.	8g#/	.	16bb\LL)	.
.	.	.	.	(16ddd#\	.
.	.	8a/J	.	16eee\	.
.	.	.	.	16ccc#\JJ	.
4E\	.	4g#/	.	16bb/LL)	.
.	.	.	.	(16aa/	.
.	.	.	.	16gg#/)	.
.	.	.	.	(16ff#/JJ	.
4r	.	4r	.	16ee/LL)	.
.	.	.	.	(16dd/	.
.	.	.	.	16cc#/)	.
.	.	.	.	16b`/JJ	.
*	*	*	*	*X8va	*
!	!	!	!	!LO:LB:g=original	!
=112	=112	=112	=112	=112	=112
!	!	!	!	!LO:TX:a:i:t=loco	!
[2A\	.	(2e/	.	(16cc#\LL	.
.	.	.	.	16dd\	.
.	.	.	.	16cc#\	.
.	.	.	.	16b\JJ	.
.	.	.	.	16cc#\LL	.
.	.	.	.	16a\	.
.	.	.	.	16dd\	.
.	.	.	.	16b\JJ)	.
4A\]	.	4c#/	.	4ee\	.
4r	.	4e/)	.	(16dd\LL	.
.	.	.	.	16cc#\	.
.	.	.	.	16b\	.
.	.	.	.	16a\JJ)	.
=113	=113	=113	=113	=113	=113
.	.	.	.	8qqa#X/	.
4A#X;\	.	4.c#;/	.	(16ggn\LL	.
.	.	.	.	16ff#\	.
.	.	.	.	16ee\	.
.	.	.	.	16dd\JJ	.
8r	.	.	.	16cc#\LL	.
.	.	.	.	16b\	.
(8A#\	.	8e/	.	16a#X\)	.
.	.	.	.	16gg`\JJ	.
.	.	.	.	8qqgg/	.
4B\)	.	4d;/	.	4ff#\	.
4r;	.	4r	.	4r;	.
!	!	!LO:LB:g=original	!	!	!
=114	=114	=114	=114	=114	=114
4B\	.	4d/	.	(16ff#\LL	.
.	.	.	.	16ggn\	.
.	.	.	.	16ff#\	.
.	.	.	.	16ee#X\JJ	.
4r	.	4r	.	8ff#\L)	.
.	.	.	.	(16ddd\L	.
.	.	.	.	16bb\JJ)	.
4BB/	.	4d/ 4dd	.	(16ff#\LL	.
.	.	.	.	16gg\	.
.	.	.	.	16ff#\	.
.	.	.	.	16ee#\JJ	.
4r	.	4r	.	8ff#\L)	.
.	.	.	.	(16ddd\L	.
.	.	.	.	16bb\JJ)	.
=115	=115	=115	=115	=115	=115
4.B\	.	4.dd\	.	(16ff#\LL	.
.	.	.	.	16bb\	.
.	.	.	.	16ddd\	.
.	.	.	.	16fff#\JJ)	.
.	.	.	.	(16eee\LL	.
.	.	.	.	16ddd\	.
8d\	.	8ff#\	.	16ccc#\	.
.	.	.	.	16bb\JJ)	.
4e;\	.	4cc#;\	.	4aa;\	.
8EE;</	.	8e;/ 8b	.	8gg#;\	.
8r	.	8r;	.	8r	.
=116	=116	=116	=116	=116	=116
*	*	*	*	*^	*
!LO:TX:a:t=1	!	!	!	!	!	!
1r	.	8cc#'\L	p	[2ee/	2rg	.
.	.	8cc#'\	.	.	.	.
.	.	8b'\	.	.	.	.
.	.	8b'\J	.	.	.	.
.	.	8a#X'/L	.	2ee/]	8cc#\L	p
.	.	8a#'/	.	.	8cc#\	.
.	.	8gn'/	.	.	8b\	.
.	.	8g'/J	.	.	8b\J	.
!	!	!	!	!LO:LB:g=original	!	!
=117	=117	=117	=117	=117	=117	=117
!	!	!LO:TX:b:i:t=rinf	!	!	!	!
4r	.	4f#/	.	4ee/	4a#X\	.
!	!	!	!	!LO:TX:b:i:t=rinf	!	!
(4F#\	.	(4A#X/	.	(16ee\LL	4rcyy	.
.	.	.	.	16ccc#\)	.	.
.	.	.	.	(16ccc#\	.	.
.	.	.	.	16bb\JJ)	.	.
4G#\	.	4B/	.	(16bb\LL	2rcyy	.
.	.	.	.	16aa#X\)	.	.
.	.	.	.	(16aa#\	.	.
.	.	.	.	16ggn\JJ)	.	.
!	!	!LO:TX:t=P:problem:mixed beam	!	!	!	!
4A#X\)	.	8c#/L)	.	(16gg\LL	.	.
.	.	.	.	16ff#\)	.	.
.	.	[>8cc#\J	.	(16ff#\	.	.
.	.	.	.	16ee\JJ)	.	.
=118	=118	=118	=118	=118	=118	=118
.	.	.	.	8qqee/	.	p
4B\	.	8cc#/L]	p	2dd/	2r	.
.	.	8b/	.	.	.	.
4r	.	8an/	.	.	.	.
.	.	8a/J	.	.	.	.
2r	.	8g#/L	.	[2dd/	8b\L	.
.	.	8g#/	.	.	8b\	.
.	.	8fn/	.	.	8an\	.
.	.	8f/J	.	.	8a\J	.
=119	=119	=119	=119	=119	=119	=119
!	!	!LO:TX:b:i:t=rinf	!	!	!	!
4r	.	4e/	.	4dd/]	4g#\	.
(4E\	.	(4G#/	.	(16dd\LL	4rcyy	.
!	!	!	!	!LO:TX:b:i:t=rinf	!	!
.	.	.	.	16bb\)	.	.
.	.	.	.	(16bb\	.	.
.	.	.	.	16aa\JJ)	.	.
4F#\	.	4A/	.	(16aa\LL	2rcyy	.
.	.	.	.	16gg#\)	.	.
.	.	.	.	(16gg#\	.	.
.	.	.	.	16ff#\JJ)	.	.
!	!	!LO:TX:t=P:problem:mixed beam	!	!	!	!
4G#\	.	8B/L)	.	(16ff#\LL	.	.
.	.	.	.	16ee\)	.	.
.	.	[>8b\J	.	(16ee\	.	.
.	.	.	.	16dd\JJ)	.	.
!	!	!LO:LB:g=original	!	!	!	!
=120	=120	=120	=120	=120	=120	=120
.	.	.	.	8qqdd/	.	p
4A\)	.	8b/L]	.	[2cc#/	2rg	.
.	.	8a/	p	.	.	.
4r	.	8g#/	.	.	.	.
.	.	8g#/J	.	.	.	.
2r	.	8f#X/L	.	2cc#/]	8a\L	.
.	.	8f#/	.	.	8a\	.
.	.	8e/	.	.	8g#\	.
.	.	8e/J	.	.	8g#\J	.
=121	=121	=121	=121	=121	=121	=121
8D'\L	p	8f#'/L	.	16b/	(>16f#\LL	.
.	.	.	.	16raayy	16a#X\)	.
8E'\	.	8gn'/	.	8raayy	(16cc#\	.
.	.	.	.	.	16a#\JJ)	.
8D'\	.	8f#'/	.	4raayy	(16b\LL	.
.	.	.	.	.	16a#\)	.
8E'\J	.	8g'/J	.	.	(16cc#\	.
.	.	.	.	.	16a#\JJ)	.
8D'\L	.	8f#/L	.	2raayy	(16b\LL	.
.	.	.	.	.	16a#\)	.
8E'\	.	8g/	.	.	(16cc#\	.
.	.	.	.	.	16a#\JJ)	.
8D'\	.	8f#/	.	.	(16b\LL	.
.	.	.	.	.	16a#\)	.
8E'\J	.	8g/J	.	.	(16cc#\	.
.	.	.	.	.	16a#\JJ)	.
!LO:LB:g=original	!	!	!	!	!LO:LB:g=original	!
=122	=122	=122	=122	=122	=122	=122
8D'/L	pp	8f#/L	pp	8b/L	8rg	pp
8BB'/	.	8d/	.	8dd/	8f#\L	.
8C#'/	.	8e/	.	8cc#/	8e\	.
8D'/J	.	8f#/J	.	8b/J	8d\J	.
8E\	.	8e/	.	8c#/ 8a	2rcyy	.
8r	.	8r	.	8r	.	.
8EE/	.	8d/	.	8B/ 8g#	.	.
8r	.	8r	.	8r	.	.
*	*	*	*	*v	*v	*
=123	=123	=123	=123	=123	=123
!	!LO:DY:b:t=F	!	!	!	!LO:DY:b:t=F
4AA/	f	4r	.	24A/LL	f
.	.	.	.	24a/	.
.	.	.	.	24cc#/	.
.	.	.	.	24ee/	.
.	.	.	.	24cc#/	.
.	.	.	.	24a/JJ	.
!	!	!	!LO:DY:b:t=F	!	!
4r	.	4c#/ 4e	f	24A/LL	.
.	.	.	.	24a/	.
.	.	.	.	24cc#/	.
.	.	.	.	24ee/	.
.	.	.	.	24cc#/	.
.	.	.	.	24a/JJ	.
4AA/	.	4r	.	24aa\LL	.
.	.	.	.	24a\	.
.	.	.	.	24b\	.
.	.	.	.	24cc#\	.
.	.	.	.	24b\	.
.	.	.	.	24a\JJ	.
4r	.	4c#/ 4e	.	24A/LL	.
.	.	.	.	24a/	.
.	.	.	.	24cc#/	.
.	.	.	.	24ee/	.
.	.	.	.	24cc#/	.
.	.	.	.	24a/JJ	.
=124	=124	=124	=124	=124	=124
4GG#/	.	4r	.	24e/LL	.
!	!	!	!	!LO:TX:t=P:problem:mixed beam	!
.	.	.	.	24ee\	.
.	.	.	.	24gg#\	.
.	.	.	.	24bb\	.
.	.	.	.	24gg#\	.
.	.	.	.	24ee\JJ	.
!	!	!	!	!LO:TX:t=P:problem:mixed beam	!
4r	.	4B/ 4g#	.	24e/LL	.
.	.	.	.	24ee\	.
.	.	.	.	24gg#\	.
.	.	.	.	24bb\	.
.	.	.	.	24gg#\	.
.	.	.	.	24ee\JJ	.
4E\	.	4r	.	24eee\LL	.
.	.	.	.	24ee\	.
.	.	.	.	24ff#\	.
.	.	.	.	24gg#\	.
.	.	.	.	24ff#\	.
.	.	.	.	24ee\JJ	.
!	!	!	!	!LO:TX:t=P:problem:mixed beam	!
4r	.	4B/ 4d	.	24e/LL	.
.	.	.	.	24ee\	.
.	.	.	.	24gg#\	.
.	.	.	.	24bb\	.
.	.	.	.	24gg#\	.
.	.	.	.	24ee\JJ	.
!	!	!	!	!LO:LB:g=original	!
=125	=125	=125	=125	=125	=125
4AA/	p	4r	.	24A/LL	.
.	.	.	.	24a/	.
.	.	.	.	24cc#/	p
.	.	.	.	24ee/	.
.	.	.	.	24cc#/	.
.	.	.	.	24a/JJ	.
4r	.	4c#/ 4e	p	24A/LL	.
.	.	.	.	24a/	.
.	.	.	.	24cc#/	.
.	.	.	.	24ee/	.
.	.	.	.	24cc#/	.
.	.	.	.	24a/JJ	.
4AA/	.	4r	.	24aa\LL	.
.	.	.	.	24a\	.
.	.	.	.	24b\	.
.	.	.	.	24cc#\	.
.	.	.	.	24b\	.
.	.	.	.	24a\JJ	.
4r	.	4c#/ 4e	.	24A/LL	.
.	.	.	.	24a/	.
.	.	.	.	24cc#/	.
.	.	.	.	24ee/	.
.	.	.	.	24cc#/	.
.	.	.	.	24a/JJ	.
=126	=126	=126	=126	=126	=126
4GG#/	.	4r	.	24e\LL	.
.	.	.	.	24ee\	.
.	.	.	.	24gg#\	.
.	.	.	.	24bb\	.
.	.	.	.	24gg#\	.
.	.	.	.	24ee\JJ	.
!	!	!	!	!LO:TX:t=P:problem:mixed beam	!
4r	.	4B/ 4g#	.	24e/LL	.
.	.	.	.	24ee\	.
.	.	.	.	24gg#\	.
.	.	.	.	24bb\	.
.	.	.	.	24gg#\	.
.	.	.	.	24ee\JJ	.
4EE/	.	4r	.	24eee\LL	.
.	.	.	.	24ee\	.
.	.	.	.	24ff#\	.
.	.	.	.	24gg#\	.
.	.	.	.	24ff#\	.
.	.	.	.	24ee\JJ	.
!	!	!	!	!LO:TX:t=P:problem:mixed beam	!
4r	.	4B/ 4d	.	24e/LL	.
.	.	.	.	24ee\	.
.	.	.	.	24gg#\	.
.	.	.	.	24bb\	.
.	.	.	.	24gg#\	.
.	.	.	.	24ee\JJ	.
!	!	!LO:LB:g=original	!	!	!
=127	=127	=127	=127	=127	=127
!	!LO:DY:b:t=F	!	!	!	!LO:DY:b:t=F
4AA/	f	4r	.	24A/LL	f
.	.	.	.	24a/	.
.	.	.	.	24cc#/	.
.	.	.	.	24ee/	.
.	.	.	.	24cc#/	.
.	.	.	.	24a/JJ	.
!	!	!	!LO:DY:b:t=F	!	!
4r	.	4c#/ 4e	f	24A/LL	.
.	.	.	.	24a/	.
.	.	.	.	24cc#/	.
.	.	.	.	24ee/	.
.	.	.	.	24cc#/	.
.	.	.	.	24a/JJ	.
!	!	!	!	!LO:LB:g=original	!
4D\	.	4r	.	24d\LL	.
!	!	!	!	!LO:TX:t=P:problem:mixed beam	!
.	.	.	.	24dd/	.
.	.	.	.	24ff#\	.
.	.	.	.	24aa\	.
.	.	.	.	24ff#\	.
.	.	.	.	24dd\JJ	.
!	!	!	!	!LO:TX:t=P:problem:mixed beam	!
4r	.	4A/ 4f#	.	24d/LL	.
.	.	.	.	24dd\	.
.	.	.	.	24ff#\	.
.	.	.	.	24aa\	.
.	.	.	.	24ff#\	.
.	.	.	.	24dd\JJ	.
=128	=128	=128	=128	=128	=128
4E\	p	4r	.	24e\LL	p
.	.	.	.	24ee\	.
.	.	.	.	24gg#\	.
.	.	.	.	24bb\	.
.	.	.	.	24gg#\	.
.	.	.	.	24ee\JJ	.
4r	.	4B/ 4g#	p	24e\LL	.
.	.	.	.	24ee\	.
.	.	.	.	24gg#\	.
.	.	.	.	24bb\	.
.	.	.	.	24gg#\	.
.	.	.	.	24ee\JJ	.
4AA/	.	4r	.	24a\LL	.
.	.	.	.	24aa\	.
.	.	.	.	24ccc#\	.
.	.	.	.	24eee\	.
.	.	.	.	24ccc#\	.
.	.	.	.	24aa\JJ	.
4r	.	4c#/ 4e	.	24a\LL	.
.	.	.	.	24aa\	.
.	.	.	.	24ccc#\	.
.	.	.	.	24eee\	.
.	.	.	.	24ccc#\	.
.	.	.	.	24aa\JJ	.
=129	=129	=129	=129	=129	=129
!	!LO:DY:b:t=F	!	!LO:DY:b:t=F	!	!LO:DY:a:t=F
4D\	f	4A/ 4f#	f	24d\LL	f
.	.	.	.	24f#\	.
.	.	.	.	24a\	.
.	.	.	.	24dd\	.
.	.	.	.	24ff#\	.
.	.	.	.	24aa\JJ	.
4r	.	4r	.	24ddd\LL	.
.	.	.	.	24aa\	.
.	.	.	.	24ff#\	.
.	.	.	.	24aa\	.
.	.	.	.	24ff#\	.
.	.	.	.	24dd\JJ	.
4D\	.	4A/ 4f#	.	24d/LL	.
.	.	.	.	24f#/	.
.	.	.	.	24a/	.
.	.	.	.	24dd/	.
.	.	.	.	24ff#/	.
.	.	.	.	24aa/JJ	.
4D\	.	4A/ 4f#	.	24ddd\LL	.
.	.	.	.	24ccc#\	.
.	.	.	.	24bb\	.
.	.	.	.	24aa\	.
.	.	.	.	24gg#\	.
.	.	.	.	24ff#\JJ	.
!	!	!	!	!LO:LB:g=original	!
=130	=130	=130	=130	=130	=130
4E\	.	4c#/ 4e	.	24ee\LL	.
.	.	.	.	24eee\	.
.	.	.	.	24ddd\	.
.	.	.	.	24ccc#\	.
.	.	.	.	24bb\	.
.	.	.	.	24aa\JJ	.
4r	.	4r	.	24gg#\LL	.
.	.	.	.	24ccc#\	.
.	.	.	.	24bb\	.
.	.	.	.	24aa\	.
.	.	.	.	24gg#\	.
.	.	.	.	24ff#\JJ	.
2r	.	2r	.	24ee\LL	.
.	.	.	.	24aa\	.
.	.	.	.	24gg#\	.
.	.	.	.	24ff#\	.
.	.	.	.	24ee\	.
.	.	.	.	24dd\JJ	.
.	.	.	.	24cc#\LL	.
.	.	.	.	24ee\	.
.	.	.	.	24dd\	.
.	.	.	.	24cc#\	.
.	.	.	.	24b\	.
.	.	.	.	24a\JJ	.
=131	=131	=131	=131	=131	=131
8r	.	8a'/L	.	1bT	p
(16E\LL	.	8a'/	.	.	.
16D#X\JJ)	.	.	.	.	.
8E\L	.	8a'/	.	.	.
8E\J	.	8a'/J	.	.	.
*tremolo	*	*	*	*	*
8EE/L	.	8a/L	.	.	.
8EE/	.	16g#/L	.	.	.
.	.	16f#/JJ	.	.	.
8EE/	.	8e/L	.	.	.
8EE/J	.	8d/J	.	.	.
*Xtremolo	*	*	*	*	*
!LO:LB:g=original	!	!	!	!	!
=132	=132	=132	=132	=132	=132
!	!	!	!	!LO:TX:b:i:t=dol	!
1AA	p	(4c#/	.	(16cc#\LL	.
.	.	.	.	16dd\	.
.	.	.	.	16cc#\	.
.	.	.	.	16b\JJ	.
.	.	4e/	.	16cc#\LL	.
.	.	.	.	16a\	.
.	.	.	.	16dd\	.
.	.	.	.	16b\JJ)	.
.	.	4c#/	.	(4ee\	.
.	.	4e/)	.	16dd\LL	.
.	.	.	.	16cc#\	.
.	.	.	.	16b\	.
.	.	.	.	16a\JJ)	.
=133	=133	=133	=133	=133	=133
4.A\	.	4.d/	.	(16ff#\LL	.
.	.	.	.	16gg#\	.
.	.	.	.	16ff#\	.
.	.	.	.	(16ee#X\JJ)	.
.	.	.	.	16ff#\LL	.
.	.	.	.	16aa\	.
8B\	.	8dd\	.	16gg#\	.
.	.	.	.	16bb\JJ)	.
8c#\L	.	4cc#\	.	4aa\	.
8d\	.	.	.	.	.
8e\	.	4r	.	4r	.
8c#\J	.	.	.	.	.
=134	=134	=134	=134	=134	=134
8d\L	.	8r	.	(4.ff#T\	.
8c#\	.	(8a#X/	.	.	.
8d\	.	4b/)	.	.	.
8B\J	.	.	.	8ddd\)	.
8c#\L	.	8r	.	(4.eeT\	.
8B\	.	(8g#/	.	.	.
8c#\	.	4a#/)	.	.	.
8A\J	.	.	.	8ccc#\)	.
!	!	!LO:LB:g=original	!	!	!
=135	=135	=135	=135	=135	=135
8B\L	.	8r	.	(4.ddT\	.
8A\	.	(8f#/	.	.	.
8B\	.	4g#/)	.	.	.
8G#\J	.	.	.	8bb\)	.
8A\L	.	8r	.	(4.cc#t\	.
8G#\	.	8e/	.	.	.
8A\	.	4e/	.	.	.
8C#\J	.	.	.	8aa\)	.
!	!	!	!	!LO:LB:g=original	!
=136	=136	=136	=136	=136	=136
4D\	.	4f#/	.	(16b/LL	.
.	.	.	.	16cc#/	.
.	.	.	.	16b/	.
.	.	.	.	16a#X/JJ	.
4DD/	.	4f#/	.	16b/LL	.
.	.	.	.	16f#/	.
.	.	.	.	16d/	.
.	.	.	.	16dd/JJ)	.
4D\	.	4f#/	.	(16b\LL	.
.	.	.	.	16dd\)	.
.	.	.	.	(16dd\	.
.	.	.	.	16ff#\JJ)	.
4r	.	4r	.	(16ee\LL	.
.	.	.	.	16dd\	.
.	.	.	.	16cc#\	.
.	.	.	.	16b\JJ)	.
=137	=137	=137	=137	=137	=137
4E\	.	4a/	.	(16ee\LL	.
.	.	.	.	16aa\	.
.	.	.	.	16gg#\	.
.	.	.	.	16ff#\JJ	.
4r	.	4r	.	16ee\LL	.
.	.	.	.	16dd#X\	.
.	.	.	.	16ddn\)	.
.	.	.	.	16cc#\JJ	.
!LO:TX:t=P:problem:mixed beam	!	!	!	!	!
8E\L	.	8a/L	.	2bT\	.
8E\	.	8a/	.	.	.
8EE/	.	8g#/	.	.	.
8EE/J	.	8g#/J	.	.	.
=138	=138	=138	=138	=138	=138
*	*	*	*	*^	*
1AA	>]	8a/L	.	8a/L	8rg	.
.	.	8e/	.	24e/L	24c#\LL	.
.	.	.	.	(24f#/	24d\	.
.	.	.	.	24e/JJ	24c#\JJ	.
.	.	8a/	.	8d/L)	8B\L	.
.	.	8e/J	.	(24dd/L	24b\L	.
.	.	.	.	24ee/	24cc#\	.
.	.	.	.	24dd/JJ	24b\JJ	.
.	.	8a/	.	8a\L) 8cc#	2rcyy	.
.	.	4e/	.	(8ee\ 8ccc#	.	.
.	.	.	.	8dd\ 8bb	.	.
.	.	[8ee\	.	8b\J) 8gg#	.	.
*	*	*	*	*v	*v	*
=139	=139	=139	=139	=139	=139
!	!	!	!	!LO:TX:b:i:t=rinf	!
1AA	>]	8ee\L]	.	8cc#\L 8aa	.
.	.	8e/	.	(24cc#\L 24ee	.
.	.	.	.	24dd\ 24ff#	.
.	.	.	.	24cc#\JJ 24ee	.
.	.	8g#/	.	8b\L) 8dd	.
.	.	8e/J	.	(24b\L 24dd	.
.	.	.	.	24cc#\ 24ee	.
.	.	.	.	24b\JJ 24dd	.
.	.	8a/	.	8a\L) 8cc#	.
.	.	4ee\	.	(8e\ 8cc#	.
.	.	.	.	8d\) 8b	.
.	.	8e/	.	8d`\J 8g#	.
=140	=140	=140	=140	=140	=140
4.AA/	p	4.e/	p	4.c#/ 4.a	p
.	.	.	.	8qqcc#/	.
8E\	.	8e/	.	8e/ 8b	.
8A\L	.	8e/L	.	8c#/L 8a	.
.	.	.	.	8qqcc#/	.
8G#\	.	8d/ 8e	.	8e/ 8b	.
8A\	.	8c#/ 8e	.	8c#/ 8a	.
.	.	.	.	8qqcc#/	.
8E\J	.	8d/J 8e	.	8e/J 8b	.
=141	=141	=141	=141	=141	=141
1AAT<;	>]	1c#; 1e	pp	1c#; 1a	pp
==	==	==	==	==	==
*-	*-	*-	*-	*-	*-
!!!system-decoration: [(s1,s2,s3)]
!!!RDF**kern: > = above
!!!RDF**kern: < = below
!!!ENC: Mateusz Solarz
!!!END: 2022-05-19
!!!ENC: Jan Barakat
!!!END: 2022-06-15
